Humanoid-Athletic-Robotics-Project-HARP/testing-grounds/utils/isaaclab_extensions/isaaclab_tasks/isaaclab_tasks/manager_based/k1/motions/dance.csv
root_x,root_y,root_z,root_qx,root_qy,root_qz,root_qw,joint_0,joint_1,joint_2,joint_3,joint_4,joint_5,joint_6,joint_7,joint_8,joint_9,joint_10,joint_11,joint_12,joint_13,joint_14,joint_15,joint_16,joint_17,joint_18,joint_19,joint_20,joint_21
-0.00023315638108821566,-0.007332505266170658,0.5568868791794697,0.7525374469130977,0.08631514412893006,-0.05592130268729979,0.6504689806541691,0.1904847768349074,0.30272829730851775,-0.14220063876784206,-1.0774264923586028,0.4607250685637354,-1.1139477531002195,-0.2665172656983367,1.1338772411056917,0.7988184833428911,1.2431048721083575,0.14365581372661607,-0.09795498585302197,0.32207782987701494,0.2839328624087342,-0.3351878937746255,0.1621000743366556,-0.10174495708523348,-0.2574165851469261,-0.301475812525594,0.509458908354303,-0.027610632843004426,0.07215270699499617
-0.01154892564682932,0.01468575186393226,0.5485264314681344,0.7479761544706112,0.08591993507197823,-0.06268074065894796,0.6551492668476614,0.17810641329653362,0.3099121115408131,-0.12442759762901304,-0.9964042730023492,0.5029631149371241,-1.0648352869536208,-0.14105195070422186,1.109726269806641,0.6305280423234793,1.0802133297588794,0.14751531102808754,-0.11644639913476343,0.31539562336558535,0.3783524701693883,-0.43967567152836406,0.1746596241264265,-0.19178285777796747,-0.3264881062543959,-0.2464929025809855,0.6896648028594052,-0.10971674065512416,0.10865582333156697
-0.020205077445853876,0.02069977399340864,0.5470664435288987,0.7521481359591495,0.08236497264580264,-0.061266273372315806,0.6509497957610099,0.1993548481435986,0.314521483575917,-0.13935937763582104,-0.9226453960508288,0.4935581102507087,-1.0026384463837492,-0.016482980788205034,1.0802790762967964,0.44814351798428953,0.9473175528716202,0.14491437472051003,-0.1272875348351081,0.34097782959812517,0.3928661396438474,-0.461136745110018,0.1615012814858645,-0.2668198590336831,-0.37190981740537055,-0.21345398438259378,0.7216619472853845,-0.09944492888625381,0.10892139250757135
-0.02963270390710154,0.02779021393864906,0.5472004033773051,0.758783682887863,0.07571478512305807,-0.06390680288233994,0.6437627780807592,0.22491065987526715,0.30982252120581355,-0.21235982558913824,-0.8281846952732367,0.5059909530333949,-0.9624014787693453,0.10369455274095822,1.0623875818995032,0.24764600071961773,0.8511664388669127,0.1555262219872817,-0.13608488888621406,0.3703036507362023,0.38995396627371476,-0.4634365571151907,0.14725414727699282,-0.3335039641751289,-0.39318444383426243,-0.2042586975449387,0.7235091144191275,-0.09817157252235678,0.10035757158317864
-0.034906098379540874,0.03484748092876716,0.5479816308883619,0.7662834467364941,0.06872440053620558,-0.0629016829722199,0.6357122102868872,0.24779425556600232,0.29564209428281446,-0.31272178504852244,-0.7318040019259258,0.5251201968031394,-0.9427331996904648,0.21292193894686626,1.049340155700391,0.07382631723178168,0.8334564689234261,0.16785190542259965,-0.1447034254015046,0.3892110963335289,0.3731594969888237,-0.4436545790376044,0.13055796137730044,-0.3848006554872425,-0.38764610410120587,-0.22003160274641143,0.691015848146573,-0.08112208991643949,0.09695915679079521
-0.03760210144851996,0.042551819184066156,0.5498037432885974,0.7733514779905378,0.0602612253813088,-0.058867348407453064,0.6283555613638416,0.2686725150916861,0.27766761019428493,-0.4547352811269751,-0.6523466867466227,0.5769631936462656,-0.9029708542337289,0.3087774643733936,1.0451308144834086,-0.08344161939108724,0.8418755199461752,0.18581624020709445,-0.15537272076709463,0.39326071067744106,0.33330045711512646,-0.4028482526669214,0.11633436154806728,-0.4103109662292691,-0.343529218593872,-0.2593416208012761,0.6347132066841834,-0.05562046224751602,0.09913860380277767
-0.038553607256108624,0.04974431082132369,0.5521601556085783,0.7806612136154195,0.05273597923527678,-0.049983764550744506,0.6207162067579127,0.284983529640902,0.26878086670530266,-0.6115527628215236,-0.5884710568284705,0.6333961265064204,-0.8650102559013448,0.387084501549697,1.034305890067163,-0.20863844541623341,0.8624140305249954,0.20860818029914466,-0.17727741239183087,0.37195583099299656,0.2741070649244,-0.3410091946099432,0.09794513367238639,-0.42035285716052495,-0.268209735496147,-0.28798941805854844,0.5732141335699792,-0.02648671546547776,0.10267620035330281
-0.038764352123937466,0.056535562636611615,0.5549127371022263,0.7856649968954939,0.046350413746114455,-0.0397165674742368,0.6156336134965595,0.2874644403980651,0.2577739829483276,-0.7671107214198817,-0.546047170204296,0.7168696617993524,-0.8319394173509637,0.46310359357236647,1.0368560143343266,-0.32676502339574265,0.8905879623367924,0.23469006946462562,-0.19385094419137708,0.3687998121979281,0.21455008857693478,-0.2618555805267682,0.070614829467028,-0.4036292639051886,-0.18627335742489665,-0.3230597891937612,0.50636373776942,-0.00063959502173868,0.1029524257326026
-0.037651548391551395,0.06306462721558068,0.5567557213435856,0.7876247203480683,0.0451862403587843,-0.030599389293386924,0.6137338030072456,0.2863419567495931,0.24997310133559533,-0.9286060771743738,-0.5377972747052495,0.8375788353509531,-0.7601135787227564,0.5242519558752045,1.0514501879405296,-0.4361159672799993,0.9055506094386305,0.25507555912167695,-0.20071357623655398,0.37845497285979224,0.18761553667901332,-0.17235882057107138,0.034154723358088515,-0.35617736168909964,-0.10851090399781532,-0.35279108568479756,0.42316407643705856,0.03439303717090813,0.10133653531428115
-0.03610728142453786,0.07076333054260515,0.5573301480141348,0.7886847616584076,0.04588587541810941,-0.022808771105376588,0.6126586269086532,0.2861927957345854,0.24119629527131403,-1.0336166933059987,-0.5454676149292558,0.9355442832067968,-0.6809133043973111,0.5681184802160442,1.0702884347379211,-0.5169112368918388,0.9308602151624307,0.25810383990349794,-0.19255205784704965,0.3936895212384738,0.19280364592089877,-0.08144952781910476,-0.006685721877435116,-0.2939734060463415,-0.04749053079451401,-0.379582458776183,0.35067678062562957,0.06949793345001862,0.09151219464622898
-0.034534980774603694,0.07997883565349839,0.5583069128442698,0.7905526618396775,0.04646997137293221,-0.0185997125909165,0.6103450510246919,0.3003174346986094,0.2366502902503129,-1.078588622337501,-0.5503510874932237,1.0037045610950837,-0.6058178183092731,0.5890200655395197,1.0846705990097416,-0.5637410961047817,0.9644928670146826,0.24912479629734785,-0.16863148261140498,0.4100811413161236,0.22780511198517442,-0.03422011804494926,-0.030943340507630854,-0.2327963682832094,-0.0028685097508723925,-0.38112664990789624,0.2864767078358774,0.07934259762282915,0.07150817419551274
-0.031790865485396266,0.0903626545053667,0.5603719358307421,0.7930008316090454,0.04517248108490308,-0.016719347591167534,0.6073134210900673,0.3264005526430757,0.22872295103915186,-1.0537135134371869,-0.5583213951193424,1.0304115820507183,-0.5308039795956632,0.5924841933596766,1.0899566109490286,-0.5821286959704505,1.0033954859755234,0.22385056576313653,-0.11880506960059928,0.42991577234216133,0.2906043560168149,-0.035825406377939295,-0.038705453786951734,-0.18151468025917147,0.022537142854847116,-0.3759546117196413,0.24644262949751022,0.04333140366467707,0.04061426360290053
-0.027059827295586734,0.10106193787544604,0.5611484014554807,0.7978034749925657,0.041439127866757734,-0.01953840135215867,0.601174404681395,0.3469764921814404,0.2215481862170958,-0.9321119022595734,-0.5505868943032498,0.9854054724969459,-0.477851599456294,0.5674683794654973,1.0876715551383043,-0.5694164223117713,1.0354721618088938,0.18341869081420475,-0.04957414539937855,0.43863737582180673,0.3793731277813327,-0.05636308993384,-0.03154042450033677,-0.14594570074648755,0.04032148041649432,-0.3698103422129109,0.2327348987490496,-0.014902293135349291,0.010044007561842955
-0.022164958634003903,0.11195513765310433,0.5603372712780701,0.8059397453751646,0.0373414996491461,-0.02405733103442051,0.5903287084769525,0.3754351035533839,0.22513924938742694,-0.6740717947490865,-0.549461864339129,0.7962994022306061,-0.4344478072605226,0.5042152481965366,1.082469152162432,-0.5153879070099239,1.0526530285544144,0.12709055156728363,0.02852993259212452,0.429940331384477,0.491946662772283,-0.08330669479522053,-0.011256308700022557,-0.1380577700098998,0.049204739370957984,-0.355718621403619,0.274235582246242,-0.08206376938590015,-0.008635369952973395
-0.023050094463794298,0.12805834504101832,0.5597655011763281,0.8164329434459899,0.03524278850167256,-0.030477141704657002,0.5755574155097444,0.4072302713542812,0.23018723781547554,-0.3712697448897125,-0.6070333895894443,0.5618247247111021,-0.380106531899868,0.42647284678494246,1.0604488243080723,-0.43285262709845135,1.0629379851307676,0.06700817348769811,0.10373798744131599,0.40732989762373806,0.5877339374494472,-0.11772367367325977,0.02405430673329067,-0.1207917583683259,0.04605871322695429,-0.33483623604998347,0.315224576534832,-0.1480492568320909,-0.03333157056202629
-0.026768462562524464,0.14402402650071724,0.5601833088505247,0.830549240972303,0.0359231234908465,-0.0403147200223156,0.5543213967262257,0.4370523425812056,0.24260445846008374,-0.08172342163668729,-0.7226856795777333,0.3342598766983326,-0.3093722304720592,0.3393523413910346,1.0337954213084932,-0.317683083883056,1.108493157653067,0.010337062690384377,0.17177527159919076,0.388968444567897,0.6653714863844566,-0.16660927211435916,0.07140315129406695,-0.09550740484170472,0.041570822835391485,-0.2889930492092297,0.3461753317542261,-0.1989070044039469,-0.035757481559192554
-0.02798933351827346,0.15652748243452724,0.5609669980913716,0.8431442489806569,0.03896809078409301,-0.05294517808402783,0.5336535125239374,0.4632584502397907,0.26013002073029745,0.13453810239390798,-0.8724400019503018,0.16900479771916313,-0.2506585723734497,0.2571761812548501,1.0097349720947046,-0.19203793978790595,1.1667478845357122,-0.04586874791541972,0.21416713014163574,0.34693161528913385,0.7163941710854671,-0.20801661147010114,0.11948524428229951,-0.06792513752604457,0.04667009690655605,-0.22623728919030278,0.3735373754694824,-0.23346159934791233,-0.032692974762393065
-0.026480191326403814,0.16621599522178995,0.5623322815083717,0.8501519128093751,0.04245140639125439,-0.0635569567588119,0.5209607629078441,0.46177899831884434,0.28573820591542276,0.278322790520074,-1.0261375513621551,0.07205675442008597,-0.1933503312108715,0.1800990566240079,0.9855555428379628,-0.08602520547426866,1.2347900227055875,-0.11257835271508534,0.23758397694866895,0.29740447542835957,0.7583596614111485,-0.2289982250523434,0.15255570391606074,-0.03242275797555341,0.048584817289071595,-0.1998919452403439,0.3809860783614414,-0.25456494537690577,-0.029791049616849842
-0.027189476668361988,0.1718813270770117,0.5639190746925417,0.8518576590068861,0.049086319458754774,-0.07562596389377883,0.5159552069883946,0.4507546822083284,0.3102429730889153,0.3968983331200247,-1.1819769170829395,-0.022928641555759872,-0.1499197309200207,0.1120322676105367,0.9463013017093743,0.01866562369084886,1.322026772583064,-0.17646703855252638,0.2321591872198832,0.25646752135655115,0.7747621342392057,-0.24069489691750773,0.1668589044196175,0.0008895755808510063,0.040297661528549404,-0.19199268648080392,0.3925450079612114,-0.2587534207740416,-0.025653681568100342
-0.02545049634299467,0.18080198520186752,0.56599085927688,0.8467679515932874,0.05540043165751056,-0.08223036940674157,0.5226404066601624,0.41818010890215945,0.33138222523350075,0.4811130151216234,-1.3233641620033016,-0.1207249611391498,-0.10566128205622174,0.037011113486176445,0.9044740074248353,0.117612919065108,1.3992136088263374,-0.22825959640525315,0.20391332579428104,0.2365672947896399,0.746780651191455,-0.22851506977087044,0.1606234727775582,0.048919620168015106,0.029114606126037015,-0.20064210084929934,0.38187888086534516,-0.24431129114160383,-0.021699901635277644
-0.01947791515066185,0.19203995572519855,0.5683548560131502,0.8401865129781201,0.05962253564051766,-0.08410973078563037,0.5324071091191689,0.381704153257079,0.3460482966037126,0.5363331208245251,-1.426717683279289,-0.2047488400314543,-0.0634918018474354,-0.04704649837775886,0.8536743542925679,0.21908987810035832,1.4649272153221384,-0.26762462491709793,0.17945558544094364,0.24130536797383056,0.6961579046126659,-0.19188976856830495,0.13557522394582894,0.1102297768642878,0.020117034851579438,-0.2437457027301276,0.3459034017073716,-0.20852623835976314,-0.011777135258665522
-0.011913052670592984,0.20536348026903792,0.5706645604587767,0.8294560539595869,0.061314939886659654,-0.08127990633617727,0.5492146297418414,0.32682621885192153,0.34977430342237065,0.5528864722810501,-1.480386183814642,-0.2776272698424917,-0.044201186356881216,-0.14332640985812717,0.8059913978115109,0.3381559826263658,1.4919222127159726,-0.28125638475737486,0.15085515714524142,0.28421308348812147,0.6090156435496221,-0.13163704220863948,0.10810807782316227,0.17929018015352438,0.018245271921844684,-0.30457283640105914,0.2897343102427642,-0.1437315597776409,0.008467318740599203
-0.01027178035170318,0.21167230880396856,0.5746415753060609,0.8167491163736117,0.06082862787586774,-0.07552430407509172,0.5687854063068389,0.2578270450624034,0.3518384465074366,0.5679867884261728,-1.499818278686225,-0.35894629692226043,-0.04493963662907651,-0.25394520775520724,0.7672588494082527,0.47025433342508904,1.472071688171256,-0.27484565106611436,0.11189504897403776,0.33184085208291625,0.4986097093325792,-0.07321196154943391,0.08609087085555703,0.23410167815704866,0.025812023035630984,-0.34599776194046217,0.22780771574963757,-0.09393251034112757,0.030684982943302797
-0.01169890909324977,0.21928452966881548,0.5777363929404212,0.8026680479342644,0.05786950425892948,-0.07278771645220501,0.5891324754551355,0.1878728903511997,0.35755177115645836,0.571927327474634,-1.4831977808421966,-0.44733943667668585,-0.057282321800520855,-0.3568796633498534,0.748631678964319,0.5902168389964223,1.4279224796616188,-0.24131357585162178,0.06311447400738118,0.39485017268699923,0.3780510604269201,-0.0385049184917697,0.07737144964907025,0.2669487395772962,0.028802580060479345,-0.4082142330580722,0.20915513058619134,-0.029374012288752305,0.049653083903531084
-0.016557528770914,0.2282521979624263,0.5783483131655778,0.785440920061823,0.05375067468595726,-0.07000068382356012,0.6126118920878654,0.11118947089724208,0.3626217504505808,0.5694953606448067,-1.4481798504082197,-0.5465934539267946,-0.08024182738904978,-0.448505067172014,0.7554878773908401,0.7141431618053138,1.3452196718785607,-0.18322151431521816,-0.005407803745671631,0.43495696748778834,0.2576054031445809,-0.0026289769064969312,0.07239908008559715,0.26753138080707173,0.016312323513762442,-0.43415097073030734,0.24034454341945685,0.04687563342352511,0.0905794651169699
-0.021886479305333224,0.23842398391659808,0.5754707845454354,0.7669886849213648,0.053733961443771724,-0.07206206584645479,0.6353330443602746,0.046547471689785756,0.3688463194048369,0.5581002674252786,-1.4125458190500215,-0.6184972328626104,-0.13277427207209128,-0.45479414355978937,0.7669400728016446,0.7814128501135889,1.2599942613880815,-0.13399271001225133,-0.07048605586487,0.4452067481003342,0.19842122174047286,0.015547758043531715,0.08424748449177286,0.22953405554405185,-0.01940224817081728,-0.427865876358664,0.3673284501054517,0.10303245694099214,0.11351664249354228
-0.03152363314650655,0.25045349708249015,0.5706019466106863,0.7456859706099579,0.06318324319277897,-0.07773667869823568,0.6587240088231893,-0.001651812917834854,0.383319456591168,0.5285761778499463,-1.3680937430013986,-0.6727593518418981,-0.2152580165908755,-0.3921506209709345,0.8024351611525374,0.8192868259068875,1.1323958930672253,-0.08773054504928984,-0.11963630720525868,0.42243132811854345,0.2065376654770218,-0.016238493355881185,0.1399203488938789,0.14374469787966146,-0.11498778561329477,-0.4237535456756404,0.6025461049630305,0.13794610923424974,0.11666426448291159
-0.04279151532567787,0.26034671898250633,0.5656961863909055,0.7255193168277191,0.07879779215700715,-0.08197462026028446,0.6787435380865157,-0.07733558297531,0.40426244624305574,0.48752972575547676,-1.3174651671168598,-0.6889516215042565,-0.3407832880439891,-0.28739893575546394,0.8586676467177343,0.7992012095730708,0.9831663319031214,-0.05267569162344338,-0.15293113367234115,0.3905453010716396,0.24265650334936795,-0.10371909392754788,0.22117049211981538,0.052456195613698506,-0.217044131840045,-0.3724540707803383,0.8214391500775124,0.16555186602696242,0.12292278133044006
-0.04349753225997696,0.2706729922593698,0.561906828318473,0.7071538320441066,0.09430373878802438,-0.08671472319847345,0.6953566131536726,-0.161876423224124,0.4415465624446061,0.41815309328873773,-1.2566690079907625,-0.6589115533987632,-0.4774514032589812,-0.14682812349923735,0.9308367729281413,0.7540584356129147,0.8322022256297019,-0.03963409303900066,-0.1653470873812943,0.3301908430741112,0.3159915164553428,-0.18864377835076812,0.2444975789969628,-0.048484227672191,-0.2617909057824568,-0.3017911989867618,0.9686335230588927,0.1288688896513312,0.10131040825858709
-0.028734417769447657,0.2817323875642593,0.5591099018478977,0.6854089658842455,0.1096365365137547,-0.08801091787798046,0.7144567570406424,-0.2281114999925723,0.48227443322502217,0.3353479097437384,-1.176329227112564,-0.558273040319726,-0.6242660297227237,-0.019687157675314294,1.008170167709166,0.684577451539571,0.6876396557957631,-0.03583719766314071,-0.15303798016934983,0.28243867745142304,0.3961104377804654,-0.26131406511942606,0.2477511429111027,-0.13033605748040916,-0.2822004691939961,-0.23605092651265486,1.053654830671504,0.08535066593084377,0.07513818793623764
-0.016655744880962227,0.2997429313175157,0.558071821006943,0.661575654227564,0.11590072087726352,-0.08935564131533384,0.7354592075694104,-0.3035306803527827,0.5141148859831263,0.22937105400663324,-1.0751139118050719,-0.43563742839172587,-0.767940558835722,0.07432565909444329,1.083863182218135,0.6130129248405868,0.5465747397577896,-0.03858430865303587,-0.13231123279964366,0.23070399111247578,0.48023183277974746,-0.32757489525324596,0.2434308842097042,-0.1953375313404028,-0.2822060182988808,-0.18847556343402394,1.0723084438261037,0.04647579935663423,0.04339646857784571
-0.007914790487402602,0.3150002130087692,0.5584210736219394,0.6398105377492588,0.11774112328838916,-0.09119513123046445,0.7539648212693012,-0.3838312240326982,0.5207849623486103,0.10551802456705175,-0.9676937565358594,-0.3206033944384235,-0.9223117561290517,0.1184375134851427,1.1391416274618904,0.5609534676420368,0.4445561135282721,-0.0427465940274552,-0.11121231101442106,0.1817396710974864,0.5408281598096131,-0.3713008013762369,0.22150339559697838,-0.2487438681799118,-0.272375286410643,-0.15780715327165237,1.0311179147514409,0.016213695908348813,0.02058393121561889
-0.0022398968533514606,0.32499177763492804,0.5600258184410419,0.6195367043354275,0.12109049198505314,-0.09530363471636445,0.7696938235050759,-0.43463649842345586,0.5378034795119272,-0.05452382674078536,-0.8518335723905041,-0.1924336286440519,-1.0365026638295776,0.14592587692173795,1.162814357696698,0.528418050320599,0.3743295770002367,-0.03305184148997707,-0.09884199846241308,0.13484672385760188,0.5657534563860246,-0.3932174385524404,0.1947471443418647,-0.2707075342805926,-0.24577167227667385,-0.1310481863266957,0.9353859688140087,0.005407203198647403,0.021240601656019244
0.0027203411840984477,0.33500509812285906,0.5623087285902408,0.603431827259141,0.12319008165579635,-0.09472429065905046,0.7821262956783068,-0.48091035967624096,0.5402704276839574,-0.23800902373165816,-0.7642763435285382,-0.08299777870947458,-1.1381583231307286,0.16190112835357268,1.1692134466391075,0.5011365599634329,0.3342279678538961,-0.014118819677801226,-0.09199082939113315,0.09844235855926185,0.5613097388559612,-0.39718981139100634,0.16515605571400538,-0.2818275390160864,-0.21276281495079236,-0.11187149760436899,0.8116682151418997,0.02274685512934921,0.04684493618785241
0.004695840983583674,0.34438652992004304,0.5648031560013812,0.5872395898166541,0.12073103203337296,-0.09183822103123522,0.7950719610286485,-0.5231786710699955,0.5290936240501666,-0.4615408542906654,-0.6945101353817407,0.04737392201912713,-1.2093482405367553,0.17209714874531018,1.1637695615927721,0.47761415363904275,0.31516324087215686,0.0003600770508919264,-0.08737117257049759,0.06500893723911044,0.544365885403771,-0.39162379039033024,0.13784000851549058,-0.28189942646860394,-0.17580709783649112,-0.08502842679553563,0.6781153930745829,0.07440268875084899,0.0891499212514674
0.0031555948128752977,0.3531382721518066,0.5673235406096087,0.5689083894916784,0.11392112316882595,-0.09023521698237935,0.8094583545050844,-0.5772634970747079,0.5097251195326762,-0.7001012257637343,-0.6663390078810896,0.20667752045662746,-1.2527178687557374,0.18023117122449084,1.1592408806748453,0.4359067799011887,0.29889305608126693,0.02032186028605236,-0.08016991587788008,0.031134779586812857,0.5076239157996285,-0.37660890164893507,0.11914352281347541,-0.2718259940432925,-0.1574031837799586,-0.07105011546585066,0.5561541807438805,0.15275206290594112,0.13407307688039255
0.0044226243522969035,0.3567662678943676,0.5693771857431559,0.5586346264415145,0.1090015125612052,-0.0865539963852952,0.8176517780263499,-0.6183555162173094,0.4806561460239762,-0.9022050998563784,-0.6539658790107679,0.3257866624133028,-1.2734572658214731,0.18386558816422388,1.1412415398074445,0.4099643717063357,0.29668594964822925,0.04441816290267547,-0.07420879713871499,0.014302635135847758,0.45172367511610645,-0.34999121956375007,0.09906845647516296,-0.26201410349585275,-0.15049075818291235,-0.06007159613261391,0.4629256334160845,0.24581899032687843,0.17360335461461138
0.005915469044411136,0.35905567141838624,0.5707883981423408,0.5498994637301896,0.10215329090134467,-0.08468671649774581,0.8246232139565959,-0.6525984331408262,0.4620455139840658,-1.078745645292207,-0.654469074373198,0.446919638605822,-1.2691690875380006,0.18521043230445944,1.1265697627112579,0.39357129205968533,0.29811509604659947,0.0671591761281427,-0.06206723792704846,0.007490817703383779,0.40183898954771186,-0.3104967039592889,0.07847733416017333,-0.24673904399453522,-0.14857413767812175,-0.07099554565361832,0.40062350656058393,0.32302192005787395,0.20140272905324455
0.004847608220615354,0.367348652390081,0.57130140150807,0.5387310599110846,0.09763836219171376,-0.08492575460575141,0.8324801568327275,-0.6762654896053023,0.4467261310547928,-1.2209861117351775,-0.665195101757717,0.5367511137766011,-1.2704483169302296,0.18630944281994127,1.1241040290439872,0.35967076101788287,0.2886233740844733,0.09767646811295905,-0.047887439508962945,0.00806446394015882,0.37556414140416144,-0.2882237149795084,0.0627712683226447,-0.22668143448310465,-0.1487172883088394,-0.09177432597841466,0.40608496459430116,0.34499999313185,0.22711828651466576
0.004651475286658125,0.3641959309129322,0.5713360238809753,0.5320977995711422,0.09633064149855798,-0.08526660151286164,0.8368524038720755,-0.6893600935857124,0.4399046606678481,-1.2894690171335559,-0.6665800963794153,0.5762637313145149,-1.2925020343134057,0.18917158697047406,1.1202017214285025,0.3394795980058487,0.28449462572678225,0.1121182064943179,-0.04378929392414688,0.004013767193523185,0.3663370508518697,-0.2825909341087067,0.046040720153041295,-0.21084888957417403,-0.15336804552390654,-0.11220011875941731,0.43721133899797165,0.344999999999957,0.24165907384729027
0.004389291984768742,0.3691135215078456,0.5693855417058341,0.5269414271540985,0.09588503732674389,-0.08381559071462454,0.8403057412149514,-0.699241217266852,0.43337989187133263,-1.326094004640697,-0.6641452072085026,0.5837557033495332,-1.3229056193726765,0.19234620166023994,1.119856599480188,0.32187409710295256,0.2834948492855951,0.11450470960856164,-0.03662366126183368,0.015037928171026886,0.3890553761696611,-0.2902031877919389,0.04559730141530756,-0.1974459966479089,-0.15776486174117382,-0.11337744616302473,0.46285999513925863,0.345,0.24744864734503455
0.004945250322127561,0.3589013028185285,0.5671863443148415,0.5254645717756831,0.09881796925416456,-0.08165336577240913,0.8411032758342567,-0.6969137538962626,0.4319258214826936,-1.3224437850242585,-0.6589662512432528,0.565008429542194,-1.3450731383125298,0.190969297598727,1.1161518464962699,0.31607011376331035,0.2820383936523932,0.09465097799283066,-0.04407837644618617,0.017507166087869147,0.423376209977689,-0.3104898622418764,0.048663983893885696,-0.189378599776802,-0.16540625887086657,-0.10338611104471386,0.4788042210805422,0.345,0.23365249653079803
0.005529540059160358,0.3535775975269333,0.5645164774653385,0.5294119157797381,0.10501042424102335,-0.08018879578272903,0.838012882515575,-0.6758924110094231,0.43602651226009664,-1.27439107390434,-0.6468804052311726,0.5092935395519831,-1.381650414380521,0.1880269882811476,1.1198702663710767,0.3231895066676933,0.2818822864657441,0.0590220612916886,-0.04675128408768408,0.04397983024415113,0.48282265179032596,-0.3325874801735751,0.06329155750866325,-0.19744244816713963,-0.1712531679063608,-0.08680118462142049,0.4985372563219644,0.345,0.208048775483699
0.00533531549257394,0.34790856248340885,0.5625189685548586,0.5340836289246783,0.11221385258883394,-0.07994469240322183,0.8341292314494032,-0.65314950893898,0.4386693897193157,-1.2046547152323361,-0.6337449830281033,0.44816866431870506,-1.4130833606777502,0.18074523461081848,1.117887598863533,0.3291641284213776,0.28017361874923447,0.023188470997529697,-0.050883129026121986,0.0733994890936929,0.5366705628614421,-0.3576791960934864,0.07411146273938932,-0.2114813212407763,-0.1823709089233184,-0.0777586066406236,0.5070897227257302,0.3440154501214295,0.18760893096680675
0.003130643108164936,0.3466941165680232,0.5606549503952107,0.5377493967704366,0.11720310071119032,-0.07828777973277133,0.8312400633999946,-0.6317785984515101,0.44130179858736723,-1.1294428848101454,-0.6278374148208734,0.38614335111088127,-1.4423946416917743,0.17670307351238215,1.1178150355965548,0.341266916213086,0.28198309761853524,-0.00123887577865818,-0.057037600253065784,0.09213348629275707,0.5808389218883,-0.37792035337694824,0.07994770752650839,-0.23532073796099387,-0.1936204186465108,-0.08103246121190269,0.5445878413900586,0.2992866170199088,0.1682556104777257
0.00394412996101493,0.34438035876865825,0.5601070423835277,0.5376707433595257,0.12062776995180276,-0.0771158327802626,0.8309105013094228,-0.6156452957787983,0.4410890962859572,-1.0707434163960186,-0.6311312751262356,0.33876846520202236,-1.46634828811458,0.17533426588970139,1.1148254211982986,0.34306634599254804,0.2795568606269328,-0.015220263967765393,-0.058000365138680454,0.10375980934513523,0.6009768459440065,-0.39898154835830013,0.08538210304076674,-0.25282141596334123,-0.2025345559921023,-0.0801118982333272,0.5713379732131724,0.2636752558531299,0.16397982781375195
0.003745401701714019,0.3445861099035108,0.5603530409620552,0.5381011073873095,0.12179239016980942,-0.07558915520007367,0.8306022462896514,-0.6042855636306531,0.4429407233225838,-1.0272458298054312,-0.6404451858586375,0.30547949357469373,-1.4925551246593387,0.17885720843102335,1.1096151853130247,0.3442770104257751,0.2803816349089709,-0.016315731343346032,-0.06063682873150861,0.10904957519880522,0.6030093130473212,-0.40802475858611864,0.08796217561278927,-0.26426318849986896,-0.20913185520300376,-0.08453690818898271,0.5832292771384061,0.24370043005508152,0.16352568053119668
0.0029734722063873443,0.3457744073758635,0.5616171215646608,0.5389973076935561,0.12098962974297736,-0.07484579089219578,0.8302057090742488,-0.5945060343445325,0.4472640934422723,-1.0030444383850152,-0.6509566526263174,0.2964523601915404,-1.5082206482920835,0.18169819807858628,1.103597935960844,0.34202878708745205,0.2821660486344047,-0.008290486570048789,-0.061388623404822276,0.11029063151925567,0.5887530831799721,-0.4062767295095717,0.0909643477332376,-0.26679327166433764,-0.20950588529588632,-0.08500111289641149,0.5712203670151489,0.24691354701429738,0.16897753850768948
0.0012797440733760372,0.34757502361317216,0.5638170776683665,0.5397119129127764,0.11773862446027623,-0.0741240027161567,0.8302736293485224,-0.5892709835289976,0.4531387980710212,-1.0010185414672361,-0.6610872179801716,0.3043641719075066,-1.5181494724650482,0.18601750860502972,1.0988553178593945,0.33599225463546517,0.28499920380198424,0.004055011744575721,-0.0636833341620558,0.10312805333030968,0.5615071464453448,-0.3957523710272667,0.09579416210883492,-0.2621004017660458,-0.20578741159963862,-0.08749174197894131,0.5359748647385714,0.26345022966071435,0.17871850199783804
-0.0008288928649991499,0.34864952566339047,0.5666838075868561,0.5395653039670427,0.11439472667132937,-0.07581936479031356,0.8306831846062233,-0.5883292935180217,0.4552518489015443,-1.0149251250794122,-0.6776511822184915,0.3366300223115859,-1.5045788254716825,0.19260157079246953,1.0967764612008668,0.33135826387458206,0.28584065321653634,0.023516487430985125,-0.06490233278463722,0.08773684240723048,0.5237481387788343,-0.37698083990945963,0.09992387660828701,-0.25136272911978375,-0.19808993842215944,-0.08990278296539164,0.49065046178038263,0.2896483297012683,0.1894131719262665
-0.0044029931011607005,0.351135649551218,0.569775757492623,0.5401880443648137,0.10871929045492307,-0.07748521036097102,0.8308868965049401,-0.5843340934180443,0.45667435497894104,-1.0392327925464762,-0.6953305042348806,0.38622298360933943,-1.4634162081127555,0.19627894025471102,1.0958521792017122,0.32452195312340265,0.28944178594171166,0.04724228193046877,-0.06558656868031074,0.07077894494614487,0.47885307005033373,-0.3554518483651369,0.10186773161978901,-0.23393818727712518,-0.1946936960667491,-0.10271149673934044,0.4346303792333004,0.3128300787477579,0.2014803306377964
-0.008180607973968378,0.35439031680231814,0.5724450986244343,0.5404130878993236,0.10295578212436042,-0.07882070926461102,0.831348962316849,-0.5775270233420684,0.45980665356722533,-1.0601578299318202,-0.7204004398929105,0.4512885536035629,-1.394360160665793,0.20211122956641936,1.0969645933877732,0.3149629841671602,0.29445916629529717,0.07017553604720697,-0.06606043185306187,0.0516235851282084,0.4380358598596858,-0.328538946989471,0.10028086403628214,-0.20810685084062838,-0.19227679948501739,-0.11806784985654964,0.37285781443035754,0.3345560048616316,0.2106495306921841
-0.005928282200909496,0.3534457199681937,0.5756468835329404,0.5413037432068336,0.09725685281088008,-0.08055816416833099,0.8312892062076954,-0.5637409671155497,0.46197630907339143,-1.060029603905584,-0.7528256283591633,0.5341387363700763,-1.287717513077039,0.20451571124394233,1.0979733271782148,0.3019447742063977,0.30596541428882884,0.0862770638388705,-0.055505467112175674,0.04739609797545806,0.3960316827101741,-0.309688882967197,0.10107245868795796,-0.17810279020995334,-0.20253579530407867,-0.14792812745063774,0.31167762444153935,0.3402643464298226,0.2247980407411818
-0.0029178938692525063,0.35133422963973543,0.5777369565687369,0.5426799014441956,0.094719069260333,-0.08275491712939098,0.830468811080754,-0.5341572121471743,0.4630947672955687,-1.0420036805230755,-0.7776380066123023,0.6504514787750523,-1.147550802996999,0.2079250769984285,1.0984347169864215,0.286457387943136,0.3122573958982938,0.09610451254069821,-0.05052139741526617,0.045559057935746584,0.37460160184996344,-0.29470595367333824,0.10253935651799231,-0.1506168089571371,-0.22215271950173127,-0.16974889717053496,0.26828696781865835,0.33307051731726744,0.2320176228560546
0.0002323255464558513,0.3478949879787546,0.5783997708190233,0.5462655503662748,0.09362248738461865,-0.08493708597317937,0.8280183994123148,-0.4909757365315145,0.4680964034287354,-1.0047662721275565,-0.7985092240955095,0.8262951744552192,-0.9212137758341807,0.21441029603999706,1.0943598944635837,0.27143088523535464,0.3271729087314346,0.09967865141258292,-0.0491159502732023,0.050144855006442474,0.36889927875803613,-0.29539098554342513,0.11423610245979682,-0.1299637087424764,-0.25006076265706934,-0.16805362522189699,0.2680961822245929,0.3190257640650427,0.2302263719416374
0.0023776384933027507,0.3429040382438179,0.5773603154876068,0.5489038139224245,0.09711580357107377,-0.08941716442846313,0.8253954776128429,-0.44404198492330405,0.47533758441886775,-0.9237174148313289,-0.8456664648744697,0.9964235666565349,-0.7024885580686038,0.21453582463117477,1.0917209070949416,0.26228282573669937,0.34445546015140943,0.09604242443499961,-0.047385745704893234,0.06388268550894849,0.38650555981550977,-0.30413695774696775,0.1273530316915465,-0.11491348755488788,-0.2803521002303484,-0.1632141345439293,0.3038639754543544,0.2991402855922992,0.21335215663533447
0.007395770073667564,0.33476853394502654,0.575791074423721,0.5574666425233674,0.10119777824785543,-0.0921818363783369,0.818836040482671,-0.4036332288003157,0.4779161385362772,-0.744157854745182,-0.8862027699013006,1.0577022458568757,-0.5346788099419555,0.21343203949994943,1.092370333540898,0.24760665839909834,0.3737692906494264,0.08186931537975409,-0.04269912184560683,0.09072856173583982,0.40465595911230406,-0.30925551398200757,0.14300907528631646,-0.12272776856321563,-0.30863800922735185,-0.14716056588898468,0.4030243928312064,0.251350786170249,0.17717644302148808
0.009257738617355807,0.3234736011599625,0.573921839287005,0.5751197692915202,0.10328724055349639,-0.09330207850335943,0.806141252545647,-0.3539597606501257,0.4775081740708832,-0.5027612864898081,-0.9072776797128529,0.9943873235640275,-0.42084211231797797,0.22963239228385302,1.0917719049064134,0.2034805258191113,0.43027127406729565,0.06304113953306273,-0.04626752785445631,0.1319096272110656,0.41655477133404967,-0.31288679683100845,0.159392362245102,-0.13571857041174396,-0.33846206939478096,-0.15497432709661446,0.5327823109782168,0.1873547930403409,0.14079200149567433
0.004812725342613728,0.3151355250704545,0.5714472049597625,0.6015995862104526,0.10168193109070284,-0.09289041415696632,0.7868354934284698,-0.27871926186324136,0.4838242433183336,-0.21328396675615124,-0.9476772898682759,0.8502279771504538,-0.3121510528044875,0.26025874327427045,1.0672532776002983,0.14467361919408736,0.5653405248879622,0.05221426300891335,-0.05755117442851672,0.1885532491088624,0.4225271365270119,-0.32663850016380497,0.18240342255241862,-0.1477066941842709,-0.3715513239134699,-0.17696528447229876,0.6780243412877534,0.11662933852109597,0.11192498944778656
-0.003307537699648807,0.3032573362054314,0.5692863024661013,0.6327011156604363,0.10059314901778126,-0.09524496788106213,0.761904661165726,-0.19395609532494162,0.49773510491485656,0.03053448509377886,-1.0262736851460492,0.658298634175029,-0.20963728282425745,0.29924398387485895,1.031226334914309,0.07052184546081405,0.7441807899509342,0.045655078888777116,-0.07239204639394478,0.25419147600417163,0.41856217514603566,-0.3302188448767947,0.21083109175687417,-0.13583814652306764,-0.41072235374707666,-0.2059376652859679,0.8104916792057416,0.05291045959372788,0.09169038291668521
-0.009362294968029938,0.28849853096538847,0.5666878618984994,0.6594818808669312,0.10311917672493519,-0.09150717453506879,0.7389699054822152,-0.10971525395114841,0.49505086811319177,0.24548805722915776,-1.1272421336051162,0.4573391857540868,-0.1349601392403174,0.33133767489579263,1.0051367198162693,-0.007138343936692165,0.9410735616477681,0.044177433685205277,-0.1020909625841181,0.3081757085595962,0.3805038245253266,-0.31387395330138507,0.24302811741864117,-0.10859358761229375,-0.42143890117042526,-0.22270069686825483,0.9048076784664487,0.047540792820281064,0.09049666438496076
-0.016164685799973405,0.2709740833957311,0.5650211219650251,0.6815188114987946,0.1040808882567072,-0.08628521189255164,0.7192038240176577,-0.039951618177707135,0.47996781327869126,0.4075814865526877,-1.2543182478463735,0.21643074731143913,-0.054224244981976394,0.34461587236987534,0.9940643470081548,-0.07883489295579847,1.1266582345743101,0.032769050182294666,-0.13397552714932817,0.3478309128424658,0.33255336645454425,-0.2620587900024633,0.259247923279618,-0.06462262618073883,-0.401588355356743,-0.22399100325934318,0.9541454979107745,0.08301783635311599,0.10082109185185242
-0.01845424570030578,0.25998314404948647,0.56597508283968,0.6979284174991081,0.09702887061413125,-0.078185177839088,0.7052435042457366,-0.008011145593010655,0.44987565587090617,0.5233252375869173,-1.3533706016522296,0.014426926259582761,-0.00018108178973072378,0.3153867740734231,0.9823910443023813,-0.10328594317218807,1.2692723915656776,0.017287172169194696,-0.15248340399005333,0.35091494432942893,0.28070749265177086,-0.20368237596461108,0.2588430638105969,-0.011482288670869915,-0.35754112599360605,-0.24708368757393678,0.9249291811720525,0.12048254469033459,0.11041366040403766
-0.015764245648137245,0.24209186553718273,0.5692708787840137,0.7141670536364556,0.0872673070159455,-0.06681039502136688,0.6912931416870105,0.021796453311671526,0.423112862271186,0.6308686688305813,-1.456846720162792,-0.11801391332583502,-1.1317611875798862e-09,0.25226070959845454,0.9563276321246743,-0.07717530237445054,1.3687742126939664,-0.010139031691125941,-0.1679262170263059,0.3174363751687991,0.22528703130224237,-0.1426949561254744,0.2313481125097852,0.053267558222779496,-0.29610728327566876,-0.27254902917876833,0.8354791813639321,0.15206826215776503,0.11765567839826022
-0.013349394530743432,0.22388252545848658,0.5720060408397503,0.7192001308665289,0.07316674228599782,-0.059233893930510394,0.6883960672422894,0.027971303482531622,0.39287526313986915,0.6777815420267181,-1.5176752965913438,-0.1812658324230641,-7.073681409770858e-15,0.16369238363990812,0.9332019359336707,-0.02240705929360743,1.435638726928957,-0.030890360464526305,-0.16999822554257837,0.2981589566842285,0.18375339257219941,-0.0819590066958174,0.19752036809932216,0.10272308375823538,-0.22245907799788728,-0.2943467096188894,0.7224204840460262,0.17821191280798915,0.1256733133395096
-0.0075540389441585525,0.20786317902283913,0.5735465997095706,0.7212713393635485,0.06189284099006725,-0.05320934148978934,0.687826793041034,0.015369864795873222,0.3765645621148904,0.6919229769723217,-1.5561509075838043,-0.2261617524008114,1.2043749718772083e-18,0.03626536960121987,0.9126029509689912,0.09352157748544883,1.4445532523623368,-0.06470798290976598,-0.15834384352005354,0.26301771906601723,0.173447898741996,-0.01112152081678619,0.14768915745234198,0.14573859188637847,-0.137287417680752,-0.29053459877390136,0.5832758385804272,0.17868244255798968,0.11717165573322119
-0.0026206476201550023,0.19275236420142033,0.5743338127908523,0.7226527801212291,0.05211534756688357,-0.05279179712350308,0.6872190160985884,-0.00442524181022284,0.3621347756230495,0.6773190024596041,-1.5650770622019083,-0.2549272465198703,-4.615270771351869e-19,-0.12258346150231016,0.9003090492413719,0.26280721691494346,1.43664604498998,-0.10166096539610571,-0.13111883160829946,0.22305832659323996,0.17071593676394622,0.05360552625220229,0.09438726955492713,0.18080302619022784,-0.06687694742202,-0.29686734217669325,0.4574685126033763,0.16027678768828224,0.09211138169472678
0.0008298024453633965,0.180251841881037,0.5746223025496122,0.7256012735055066,0.051826177914740305,-0.05328366160206399,0.6840889493159591,-0.016635061251287876,0.3547437661636837,0.6452319296316353,-1.557966894728455,-0.2911652262623445,-1.9058241313221758e-19,-0.29748648747310025,0.8992809460834096,0.4908810351870515,1.375522013487956,-0.13941874978204696,-0.09979890064459435,0.1619279726419876,0.20268907837912076,0.08857234919263297,0.05023806686149837,0.20091432170461904,-0.027868576239579446,-0.29657504963555936,0.37869939800720215,0.11772793535780136,0.04544458210741226
0.0032030144596629905,0.16967011955746641,0.5752087253474046,0.7288806631094493,0.053672418427161195,-0.056686399620626125,0.6801756409511882,-0.03022118849891415,0.35055905955828826,0.5967420135615933,-1.5431642556257479,-0.31060028102808374,-5.624298769768554e-19,-0.4294256539361943,0.9231941086460821,0.6759419196175774,1.3469415957202222,-0.16959146780613393,-0.056433726641870297,0.10309397447026478,0.2632437582061487,0.06464241377315637,0.033920855228387954,0.21206771762756318,-0.005194798409038935,-0.31333664680260975,0.3322404062833445,0.03628401741928767,-0.005129032627234929
0.0063004480056299324,0.16117981521970517,0.5739693771531157,0.7298422592344487,0.056837328047021116,-0.061722342365258545,0.6784468639687097,-0.03206557555335404,0.3467848429620524,0.5241760535114868,-1.515667218726207,-0.33270952796232023,-2.112500170452225e-18,-0.5498879422928536,0.982335193304898,0.8552158189984674,1.2839006815878446,-0.20023026465409616,0.01803634090726921,0.08915680235662507,0.357994063649081,0.018943032833328925,0.04962607092604847,0.20898140619213962,0.008282144699541562,-0.3483453487414344,0.32480525185918413,-0.06806344563347237,-0.056451790861322446
0.009965658019644028,0.14511013030330108,0.5728815944682286,0.7255288188116853,0.06354526354881454,-0.06920035580515976,0.6817486657931,-0.047100078726503375,0.35377629576550296,0.410597946327789,-1.467013509221685,-0.3089679155104744,-0.03036938402978782,-0.6199747156343339,1.0338424214658992,1.008492099103065,1.2374201912570288,-0.22473813887988936,0.0937507069927466,0.08217996538815993,0.4734381890714274,-0.05596429643757851,0.091767088979956,0.1884285301340122,0.030071948189511942,-0.33925211790748255,0.3397334473248863,-0.20100812929103457,-0.0861221074208513
0.016300158115320325,0.12511581625770374,0.5708335625842945,0.7196655122377419,0.07235605066545567,-0.07352920480789196,0.6866145996612699,-0.06679480593732696,0.3503114752058661,0.33303343614543235,-1.4172799551264306,-0.3156703057073516,-0.08448150668098073,-0.6288689320704892,1.079112041810421,1.1128223977670126,1.1673401423712493,-0.24095531835010145,0.1574037109433544,0.06104248421825374,0.6179563620856736,-0.13086076388945944,0.1331086708914658,0.1394108840677008,0.05000194284285847,-0.30517831562023245,0.3863821787144812,-0.31547539122122464,-0.1169314021095985
0.021123224268390063,0.10283042863849691,0.5677925787798883,0.710894988902058,0.08064134955244097,-0.07905951111033563,0.6941720832756807,-0.10299287043182552,0.33899478886467516,0.27222242375396866,-1.3533236474562547,-0.3105812994087182,-0.1610604836819887,-0.5940008727665917,1.1173036267679,1.1986842619096059,1.0569399997467048,-0.2384489320163049,0.21312428321490406,0.04799217084438889,0.7451997005183899,-0.1791095688268939,0.15636714992308967,0.08067192007756811,0.06889292910313613,-0.27128634839306676,0.44581586019694963,-0.3854805972196909,-0.13762042098212393
0.024154506459279843,0.08452952029493364,0.566312667101609,0.7056245919022973,0.08848050625675292,-0.07901933507431934,0.6985850556658633,-0.11991317669692515,0.3180833508993403,0.21448700078237437,-1.2979113291137052,-0.3030389913030459,-0.24103231717343965,-0.521611492951036,1.1376447656994058,1.222418616912589,0.9393478588891154,-0.22144259021494483,0.23741976457241276,0.049832714092506655,0.8204286266866488,-0.21949763469010497,0.17484963376520055,0.026218063541831125,0.06763333471783589,-0.25576172204163644,0.494554131403898,-0.40292983851492914,-0.14078750452697067
0.022794438326566593,0.07613699994332566,0.5658600979186763,0.699910880077825,0.08621067705852851,-0.07675698178831064,0.7048410067926979,-0.14084328418690806,0.29078694546912837,0.15774075235168056,-1.2286346646137687,-0.27667074645868783,-0.3354843977810808,-0.43995956651735024,1.1487270632812123,1.203287543873319,0.8060976173085913,-0.20135495278528653,0.24250642504657222,0.06455057661564034,0.8507821037816214,-0.2531696069935694,0.17908980952115866,-0.006930599711778036,0.07077105983361237,-0.24827739274140623,0.5102857956459489,-0.39812915697984086,-0.13768987843630984
0.017647459116711377,0.07108489103601577,0.5674916032194939,0.6877320682844285,0.07989944387188835,-0.07358977727331632,0.7177919098200043,-0.17590056458791636,0.2721197837281052,0.09846504070582711,-1.1498514566864741,-0.23470817053551882,-0.4462352753879587,-0.344802614053743,1.1447217226097557,1.1230599527983358,0.6664718709659067,-0.1852342740189205,0.21995881716933008,0.07364811364230794,0.8353912415656656,-0.26962940773599664,0.17323737084531846,-0.020824489556987628,0.07406837175572532,-0.23476288489977956,0.49182300060495304,-0.36184959660180493,-0.1283321449959166
0.009109125969643379,0.06661221610965215,0.5713980878363727,0.677009539099937,0.0730401335378786,-0.0670754657800666,0.7292627131225398,-0.20550912931142234,0.26142663944980427,0.039299393976654516,-1.0901564790142613,-0.20554222782064283,-0.5462343749416606,-0.2721416958739917,1.1185445109437055,1.042323298689331,0.5713105285872107,-0.16311625310217054,0.17363348685517688,0.08882179261049797,0.7636311028349826,-0.26680483587871806,0.16748280513454578,-0.026147723599127797,0.06340066513168234,-0.21684778328562487,0.4506904241932229,-0.2911615916171627,-0.10203091537317116
0.001852643015911484,0.060901275838178615,0.5761702433951256,0.6632874321488836,0.0655858088358992,-0.058132157935769625,0.7432152691154915,-0.232920311383933,0.2545749283397627,-0.011636327397434684,-1.0237733417980879,-0.1539362107586772,-0.6446131100211103,-0.20266002632993602,1.0785173154974288,0.9267990247443331,0.49671463734877336,-0.13799629291935894,0.11655268476161651,0.10702160007859114,0.6544547439103613,-0.24896429828877303,0.15498608482821438,-0.027742685056791602,0.051597829866690516,-0.20706928417549048,0.3903400064273541,-0.1990212245639203,-0.06066692945097441
-0.0029743927863590943,0.05332827066271816,0.5796128828964804,0.6467115663383419,0.059048459304966334,-0.048250089322552966,0.7589132745566419,-0.2768087816195331,0.24470272757395536,-0.07260948304764511,-0.9691958711213503,-0.09414132031562472,-0.7504627381215115,-0.1205458407486904,1.0407567013264356,0.7823301786827517,0.43928073796547795,-0.10318760990726049,0.04678368303832525,0.10477363407706616,0.5160454081584366,-0.19532435671541754,0.13325155487346968,-0.029070578979716037,0.03792729934146983,-0.18974435556034647,0.3173245115620183,-0.0743312496357006,0.009003990815355006
-0.005521050753540352,0.04718766863312028,0.5817929475280917,0.6389391786770771,0.05468296991269174,-0.04188062692627895,0.7661674176322385,-0.2936517420259413,0.24892724597179125,-0.12276856110818651,-0.9194220084977196,-0.04368241968096246,-0.8367265205510435,-0.054522025312660455,1.0088506795671808,0.6536979152172656,0.3996169564044254,-0.07051061737796983,0.007474297079068675,0.10980629934209095,0.4143119374176939,-0.15755163663968166,0.12007599069226814,-0.04042656080550948,0.013901591016511866,-0.17576268231665446,0.2837439916233171,0.006550542074221996,0.056820833065906434
-0.006482866102932999,0.041075835888348095,0.5820721883252169,0.6336967555784557,0.04922574975857396,-0.03840753601958416,0.7710577855822163,-0.3083883871295191,0.25162482055071234,-0.1822308515155885,-0.8721489220702512,0.005271197309967023,-0.9094813855447654,0.0059113831030946,0.9805948313330711,0.5374835421046422,0.3735879396593217,-0.053497446334923454,-0.008548981288867951,0.11720110667416593,0.35557913680547837,-0.1311910116021278,0.1078648548113921,-0.05165681142602753,-0.02819078547355909,-0.1812281535530158,0.28400021057716496,0.037607984428898386,0.06960449039178468
-0.007875303767811153,0.03571561951976458,0.5810248179843339,0.6318696512364005,0.04551861039420789,-0.03460404198163165,0.7729627159395884,-0.30883422109511083,0.25350829517119533,-0.24640176750561862,-0.8268616977621638,0.07290433153965711,-0.9563001807723798,0.057112281725269665,0.9531554611750147,0.4267333029158086,0.3500138998250254,-0.05376683777466085,-0.023578392633917984,0.11256665619058391,0.3357613000103639,-0.15175556428585343,0.11066101498558009,-0.06883492589515554,-0.0836661457196975,-0.17429256253853853,0.33242503509455146,0.031225035428446783,0.06785246769856129
-0.010485785849542083,0.031309475577224154,0.5785189707034868,0.632379792146755,0.04390027939659607,-0.0306311924371949,0.7728067636888313,-0.29656156978485465,0.2551935439985587,-0.29825193125353266,-0.7973742272790896,0.1353956961358154,-0.9859576975402764,0.10250189810566948,0.9378159905086071,0.3208906755148181,0.33684846740188,-0.06242752472015557,-0.04388342026030925,0.09836892293517822,0.34019140464718317,-0.2053278829858261,0.12408309730800746,-0.09322711609337837,-0.14056341095831276,-0.14569636293221022,0.4154406301103188,0.007711428564669574,0.06106996254778656
-0.013997440834293138,0.027288395132950765,0.5751420737454248,0.635119932223927,0.04389912179411562,-0.027212862709444237,0.7706847597433977,-0.28839282214880463,0.2645607769794274,-0.32671762333101795,-0.770563406755864,0.1799035305196077,-1.021124722920667,0.14279267622349448,0.9253752105155713,0.228485222452991,0.33086218608967405,-0.08042752406479653,-0.06439874220936072,0.0835678612041561,0.3655510848137769,-0.2671427773364951,0.14371375953820095,-0.12147476130429403,-0.19770273432803753,-0.12340293408004867,0.5245010490523135,-0.02727341966926665,0.040211268984295986
-0.01816125248018275,0.023244587389477205,0.5708618457570095,0.6404510192455114,0.04726719899459752,-0.026637823895057724,0.7660801068979199,-0.2728183253992424,0.2834219528891267,-0.3363252657271111,-0.7525679014395198,0.21101838955472751,-1.0392998288889743,0.16580792866307592,0.9283164709595816,0.17248608699141885,0.31678730176185765,-0.10388635594015219,-0.08263441924525738,0.08079851159581738,0.413223721822508,-0.3249921041992266,0.16252288492549508,-0.1427282485585646,-0.24880069563584184,-0.10949207368808586,0.6441906047295718,-0.05724594182752533,0.0191412195280065
-0.018604773125652244,0.016253533629272354,0.5663451119760803,0.6481271366115725,0.05352833858176485,-0.02832933082969253,0.7591201359278409,-0.25657127104160254,0.3045919823472725,-0.3272185539931399,-0.7296613413407762,0.21809959840252727,-1.0565473932170943,0.17951806875184456,0.9354699901326093,0.14546618057946903,0.3054480491236876,-0.13277440972261434,-0.08813786313621236,0.10035468817055986,0.46965267199389515,-0.3659662374828756,0.1825754111547629,-0.15735725509203335,-0.29334791716707126,-0.1131230146745549,0.7614702208663838,-0.08065039630468634,0.0055600970344331264
-0.01912611135031492,0.006220010223501863,0.563281145209513,0.6569440939765498,0.06026076940806206,-0.03277945349372166,0.7508119634691038,-0.23315996737307468,0.3249404571122085,-0.28994061061152393,-0.7111033521048152,0.19227525544508747,-1.0742841785851291,0.1881490839772015,0.9520918017888497,0.14556580600872557,0.30150603818363675,-0.15280312155622683,-0.08621968289686316,0.13167031087220826,0.5062710464124404,-0.386444032839275,0.19730008797576656,-0.16432225517870735,-0.3264280610534415,-0.1312230387174107,0.8677915843195457,-0.11069135037815253,-0.0028773016783413454
-0.020654022381063678,-0.004039976463402942,0.5614821371804388,0.6672329152395207,0.06389888070282133,-0.03513423670266949,0.7412710403605538,-0.2064563341920215,0.3359125921784776,-0.23682828825876023,-0.6935657704521425,0.14024283407672186,-1.1025286013670563,0.19085637285601334,0.9658707262153614,0.15266665006412247,0.3018211614773579,-0.16703802592101022,-0.08289000801500979,0.16955589732670778,0.518780185356086,-0.38021492369154575,0.2063392777768432,-0.15214875372094047,-0.3498966444597661,-0.17442391039390542,0.9351510157753412,-0.1281558745191319,0.00012545064796645397
-0.023747240102298395,-0.014922804686299342,0.5609058399719594,0.6778198586374637,0.06469851860566539,-0.03546315809020702,0.7315167156977271,-0.17337786784448408,0.3346996210572507,-0.1798156935346194,-0.6782824530308671,0.08002571697900464,-1.129580522569667,0.18782837787815476,0.9752237034793221,0.1747291934056336,0.3142201348708781,-0.17546230564616744,-0.08249146150568674,0.2075712666199614,0.5048549057767812,-0.3539159857691104,0.21012474778692694,-0.12256652277297958,-0.3526778066012047,-0.2269055166463185,0.9501122058112781,-0.12501639950451127,0.012407180591789585
-0.027638342931854236,-0.02269280000935996,0.5616303055146978,0.6859242612048564,0.0622541374518435,-0.03325824510071671,0.7242418238361542,-0.1424145545943683,0.33127599060329077,-0.11544370449396715,-0.6682146497504781,0.009905412542701744,-1.1550705498780067,0.17821373572698315,0.9863642169279598,0.19787881968583962,0.3365975207502019,-0.17253413272927642,-0.08607727978068956,0.2419444162938687,0.4648486199796002,-0.31987876401091864,0.20795898174418467,-0.08701185793146735,-0.3300381806429549,-0.2780369733740793,0.9150092413038652,-0.10763465057024871,0.0345242764226954
-0.029818928461704877,-0.030122681856547043,0.5630961459386398,0.6930533459768912,0.057075227192550954,-0.028158240147606556,0.7180714390525107,-0.1092670587270693,0.31927498851026076,-0.04820774020419932,-0.661916342746782,-0.073736200469617,-1.1709194365408866,0.1639820902801983,0.9988903995501754,0.22371976801382215,0.3595383064074075,-0.17441035046068484,-0.08725620601849073,0.27361943586702175,0.4176953704865072,-0.2682779843457706,0.19209089885683034,-0.043510732845000365,-0.28704522536670524,-0.323718816248462,0.8352471277795267,-0.08886766560315948,0.05724467618776684
-0.029172449997553286,-0.0373154678775496,0.565103377106329,0.6999978456255099,0.04934020414223095,-0.0214017450917728,0.7121169325903394,-0.07768397892909977,0.3013350840388222,0.016233832954881077,-0.6658803148273773,-0.1567192323947682,-1.1777748764653808,0.13525354217792154,1.0162897396199329,0.2546553723050916,0.38794982050615384,-0.17615906112223864,-0.0837597699831306,0.3008530920065863,0.3575061845875173,-0.2130297220439178,0.1686459544131929,-0.004559292546026543,-0.23241879380831695,-0.3556665900794379,0.7183600389656195,-0.06804350435922704,0.07763640771139735
-0.02428916556347934,-0.04495010862973577,0.5667187999625443,0.7080292167623219,0.0427576711032231,-0.015519805175783077,0.7047166419349458,-0.04555958930286607,0.27697774280106047,0.07350863400064235,-0.6807786339910803,-0.23146412329697136,-1.1952213696621612,0.10361762059536796,1.038022329807297,0.2958264712719604,0.41220655274097995,-0.18867294080880037,-0.06873391303420705,0.316138091437603,0.3208404171282531,-0.1530701973983629,0.13832740543779176,0.029704448373100743,-0.17789005045723422,-0.3800107589943721,0.596551310443905,-0.05866366991500268,0.08527750739528994
-0.017183937699175117,-0.05281734191915957,0.5677167493480656,0.7166307475024608,0.03654094183901893,-0.01086985566481723,0.696410064216053,-0.01535633046037063,0.2594451326668766,0.12384899531673273,-0.6994033224700641,-0.29698485743622227,-1.2047842333218906,0.07160968420414418,1.0631675679671377,0.33621245898941204,0.435325156609617,-0.21300253108499978,-0.04128471337540069,0.3256466302638195,0.30406717144357137,-0.0928319283306992,0.0981460170023771,0.05834237361707276,-0.12701844679098068,-0.39769861160763176,0.474570692397431,-0.06169753334337413,0.07738583954509312
-0.007847711006300485,-0.05994208368116501,0.5680951493009707,0.7247917255982503,0.033812375890393716,-0.010250314061191784,0.6880614862078852,0.010877847686104329,0.2517819625640777,0.16701647422527144,-0.7232102004378285,-0.3461534345558295,-1.2146774184602958,0.04668290482774126,1.0936239606875997,0.3801531001576543,0.45115477209434823,-0.24903440994452508,0.000985647048082721,0.3239529554237511,0.32969598286130364,-0.04279013147194269,0.05736103087445308,0.08350053634752495,-0.08081273174298625,-0.40546850099242293,0.38144407040699463,-0.09746788024016623,0.05033428048366463
0.0022438681326021094,-0.06605444961099144,0.5674840925431913,0.7326581678580687,0.03497674192891513,-0.012255467909422856,0.6795869628687831,0.03941134051684292,0.2525003542689841,0.2105169595547091,-0.7526706088833593,-0.3857357958885585,-1.2215476725438879,0.02979495379399517,1.1297491063870646,0.42016294986655267,0.45925677906429113,-0.2911839065896023,0.05121847713016387,0.3115117347350888,0.3821421366767881,-0.004579387854048482,0.019174122488329528,0.09925103442401481,-0.04860912417363428,-0.41974345070988767,0.33055920470782446,-0.15520558131748285,0.009157720619795437
0.011303645759586516,-0.07304928508893849,0.5663531805641036,0.7391651323949285,0.04002123362731087,-0.016494305870888352,0.6721317919756312,0.06634561937826897,0.2635550439538923,0.2401042149928466,-0.7817373524280812,-0.4101973610973858,-1.2241574054412918,0.025298972451390973,1.1645041285210158,0.452948258028756,0.45733681199335696,-0.3366739445172391,0.09927322155514752,0.2839648246315162,0.4397510245136036,0.010047162547992719,-0.0016306171501400749,0.1031307908759962,-0.027267100289054644,-0.4164503221250416,0.31893853187716836,-0.221261352581264,-0.026707585813743558
0.018854490046521157,-0.08116640004250415,0.5651317528513274,0.7443962644089829,0.048326005789931965,-0.024549237925539008,0.6655344721467238,0.09531689683809946,0.28405544367291424,0.26216676650844867,-0.8059928108096143,-0.419148517302199,-1.2227561462805183,0.0274713186135195,1.2037770503238088,0.479985628068299,0.4384355801844464,-0.37935348726428825,0.14352104305528826,0.2571985890425847,0.5008877320015636,-0.0006070530090957621,-0.003523896098341835,0.10081846925047862,-0.017353767015330937,-0.42194128575691414,0.33968824727933156,-0.2899557385662177,-0.05563906406384045
0.02250792975084509,-0.08872330441961122,0.5631113492488266,0.7473192780738291,0.05622533819642361,-0.033746418122778295,0.6612214358501932,0.10744601158180415,0.30357716171361027,0.2745741211908676,-0.8214834288838219,-0.4131573343579469,-1.2282421833876285,0.033978005183559916,1.2409668321218699,0.49345635121554016,0.41347924763836497,-0.41373988350999624,0.17070155583585772,0.2337133873099972,0.555644392498353,-0.012232797090806984,-0.004865963837621372,0.09100025497056617,-0.015869084526499606,-0.41822700131183044,0.38081943165225135,-0.34702999835143716,-0.08076970641972901
0.024979583049268037,-0.09483557096255643,0.5607109146881182,0.7494293012590829,0.06348682341663217,-0.04227963133299875,0.6576758916374641,0.11865041164026065,0.32034780553990566,0.27929020934823323,-0.8302840462912024,-0.39964136577998355,-1.2307634089631556,0.040889147153841815,1.2732668437357004,0.49605498564758455,0.38931064252192826,-0.4397855036149505,0.18929744331532738,0.21740753248697886,0.6004608613629935,-0.01571520668544648,-0.009915792689704654,0.08188367458118664,-0.020153644802628587,-0.4236675176459589,0.4240465792401691,-0.39253335543403783,-0.09709089076247622
0.02646182708170488,-0.09931113973121723,0.5586046690923234,0.7499060137441923,0.06843166617771451,-0.04949824101629626,0.6561310857982036,0.12468164116758558,0.32867933775426433,0.2774920400210043,-0.8302844229779275,-0.38328060420595356,-1.2407299211752598,0.050891605709317736,1.3006103175469932,0.48810700152026365,0.36805374267125085,-0.45848839897531235,0.20306891930951015,0.21238274780653787,0.6259171714250924,-0.013393086979500757,-0.015258792456021656,0.07876943900613814,-0.021599274511049232,-0.4316461434379064,0.45224035210283864,-0.42578291077786495,-0.10571852573345161
0.02665334245015483,-0.10308775627071393,0.5572186958246235,0.7501604366896055,0.07110237015525636,-0.05468270176297805,0.6551439340418763,0.13079635723059177,0.33091734380479276,0.2681493102344629,-0.8221162451821598,-0.36322133138548046,-1.2493868473816214,0.057968872659000095,1.3183911834356712,0.48411460370005877,0.35199803475901525,-0.46686960477608525,0.21016434270900608,0.214611919764139,0.6340365302486639,-0.0062621221656955425,-0.01863298499028361,0.07842220124153515,-0.021512745690220426,-0.4384228355873493,0.463799032409699,-0.4445884821423052,-0.11045541731155029
0.027245788705879508,-0.10541585371692899,0.5560151471445406,0.7492200870262619,0.07260983533450835,-0.05862314607540023,0.6557136568299295,0.13041448865732896,0.3314492653281541,0.25451649473153654,-0.8065705836453473,-0.34003895240531673,-1.2603856942749505,0.06584561758084935,1.329874629305202,0.47671878574009,0.34235799178854703,-0.4696880712994866,0.21441080981882538,0.21842271840576,0.6347312916884037,0.0051876707845067635,-0.024452727812462507,0.08026928017866425,-0.019561652255711704,-0.44847117267595626,0.4708052915021096,-0.45657078881430996,-0.11307351511158832
0.02756258187828216,-0.10638562949355722,0.5555301345120313,0.7483612227348286,0.07234419815016604,-0.05969668658454156,0.6566263038530128,0.13109806667123533,0.32508703087666946,0.23311151644230788,-0.7892407660890192,-0.3141641404105268,-1.2670662384364448,0.07098343865684494,1.3374856464763958,0.4688238985884957,0.3345352829275,-0.4635197842963864,0.21088711435211405,0.22276152422388792,0.6172230500849202,0.018293448556139097,-0.03192847006201398,0.08451765126238495,-0.016540228272508083,-0.4581952951375432,0.4637366772983835,-0.4597582380009997,-0.1129151878417117
0.027927098393546457,-0.10647448611208991,0.555836203334854,0.7467589129947935,0.07114093865795527,-0.05821150837560907,0.6587120106710795,0.12816488556660827,0.3144952719509136,0.19713872691056106,-0.7699081458038866,-0.279047967920151,-1.268628314818172,0.0756404382035467,1.3395368005990167,0.4593062119231872,0.3303526578839491,-0.45165900247818774,0.20088872977751243,0.2253656910562647,0.5866714952889889,0.035417402883653235,-0.04208599912505613,0.08962806832452827,-0.013743851909338162,-0.46962885298702295,0.4474544246170867,-0.4514747555036076,-0.10900247260177805
0.028534156155186726,-0.10592479186420994,0.5569993970892113,0.7470396411042142,0.06879441510476818,-0.05275166737670967,0.6591026965945876,0.13202951774121238,0.3014065671001591,0.16259954859907036,-0.7576401636150203,-0.25181878892366755,-1.2628259241340798,0.07790387052948596,1.3378718073566245,0.45087826057485153,0.3306055532586046,-0.4359585613441988,0.18681817543800067,0.23157801294385857,0.5439394195369616,0.054786613102374065,-0.05332526379468951,0.09270040593510266,-0.01222637899186673,-0.47805198500025237,0.4195334738710161,-0.4321176573567851,-0.10103902648818766
0.028970453832271946,-0.10424595573164101,0.5583410207176196,0.7478436038049852,0.06617779167403877,-0.04544293561131045,0.6590033260463457,0.13625538865261574,0.2851554435159201,0.13524321982830545,-0.7505967057349554,-0.2326632337135895,-1.2603673466195595,0.08118505582717801,1.3305971201124978,0.43861055068922566,0.33611878173513154,-0.4201893458462851,0.16775762952189954,0.23548046127295327,0.4990775796390069,0.07692253237998657,-0.0639907352018805,0.09499924505160551,-0.013151442853452745,-0.48412750415437383,0.39033588978612793,-0.4043101452787185,-0.09062830199269793
0.03010619903114295,-0.10312742534781909,0.5599303005633451,0.7489600547566804,0.0640255387973555,-0.037827985701274096,0.6584288953701549,0.1433382337570845,0.2709393309304758,0.11024906372898777,-0.7513806427609003,-0.21271117553166227,-1.2512691512511283,0.08027467934656649,1.3189718167098983,0.4285659273192269,0.3427839286551504,-0.40044207366509815,0.14866417676903906,0.24321907642578713,0.44605296274158135,0.09514647306853054,-0.07336340155532382,0.09859438469093797,-0.01202746079156471,-0.4896359921905654,0.3557099359814334,-0.37425294425627137,-0.07985986110338333
0.03069144271687574,-0.10311537582223557,0.5612469987547101,0.7508609177700135,0.06252429912388047,-0.0313088844281493,0.6567483139989815,0.15245858335784002,0.25998476192855496,0.09295170738399583,-0.7609366557890483,-0.20084925046551605,-1.2376418737803863,0.08249310040313415,1.3063464234117679,0.40809954051483927,0.3503693606820167,-0.38181948551087347,0.12940189249979542,0.24639715702614254,0.3961661736151009,0.10964415447513093,-0.07965827073534992,0.09944329866601802,-0.012581291926918736,-0.4923459061596077,0.32647181306127887,-0.34669851756614123,-0.07146196276502681
0.02966163738889655,-0.10371003425993068,0.5621493141984414,0.7517587768486643,0.062105937794446384,-0.027482727440730065,0.6559316226666393,0.16126310263124707,0.2583760158648405,0.077522565030056,-0.77856165859417,-0.18321517998820414,-1.217321689810956,0.08129896049297819,1.2903553666381562,0.39260072700915566,0.3634769112869819,-0.3630969424589071,0.11135121629871596,0.2519736623295493,0.3526534661142758,0.11444020823743592,-0.08129986289659212,0.10009376947888465,-0.016294209757663193,-0.49443405686151765,0.3072688780206358,-0.32554981291287943,-0.06590122695352377
0.028420495359091393,-0.10538382432582803,0.5625488694871181,0.7526145953457504,0.0633513247398891,-0.026030813481228675,0.6548895153197664,0.17716471364423833,0.26418772188030426,0.05980684945313757,-0.807035543292609,-0.166351811836185,-1.1833083316690558,0.07767090794154259,1.2715625068281726,0.37575701998837463,0.38202337142971254,-0.3499700024938753,0.09955256407205645,0.25674218919312897,0.33023521624270047,0.11130288421025722,-0.0805789758467295,0.09862791188260975,-0.022049057813132267,-0.4942576380420166,0.299941789737884,-0.31657045578037873,-0.06587385936846975
0.027900771250694848,-0.10659550447558185,0.5622740632367516,0.7529646282633793,0.06476556599060412,-0.02587682981566073,0.6543547048236136,0.194391725216119,0.26771979900234555,0.041692534639500754,-0.8432640386415359,-0.14393828238114864,-1.1466248981702367,0.07125374206677834,1.2514358055891952,0.3498662291868158,0.40820754010395255,-0.34022379344986153,0.09414056573270638,0.2644423703422201,0.31829673324033747,0.10388961725446332,-0.07647298067984538,0.09700018609267165,-0.026802251573383784,-0.4982767119117514,0.3013290602862613,-0.32246522474883593,-0.06851606846188384
0.025709409049571533,-0.10873693594020098,0.5615248137806014,0.7544305610546592,0.06617608763364738,-0.027891985061252567,0.6524394923221603,0.2227194139026562,0.27764064317348297,0.010609737334195214,-0.8769531590387095,-0.11328146468817468,-1.1102872578674052,0.046956352909132866,1.2407377613413548,0.31031307188264934,0.439830686699434,-0.33496642474098903,0.09269461911969251,0.27649294053014795,0.32193259103586985,0.08689583431534265,-0.06868798554806221,0.08831707542355838,-0.03706262617005126,-0.5003163891505059,0.31925592165707656,-0.33634618920303033,-0.0700483284743855
0.023671707961219885,-0.11206767940967892,0.559638332470742,0.7532283509819457,0.07079689211761599,-0.03226878145595099,0.6531413147909516,0.2528314588236529,0.2982102496949465,-0.029795269043859332,-0.9160584220101033,-0.060842032243505,-1.091075663275523,0.015494775718999449,1.2281953314295273,0.2798945794060239,0.4917601925172845,-0.3321496105858359,0.0935045251812008,0.2874340875657998,0.3465224655283672,0.07204713049627559,-0.06208674419674415,0.07306104176326435,-0.056688234566820025,-0.506924390122993,0.36656900802143266,-0.3526227487806761,-0.07110766891681065
0.020835137994825077,-0.11596662558802996,0.5572133548226663,0.7512005552762896,0.07506628956673783,-0.03815949259834645,0.6546805564914184,0.2898910971644399,0.3138275338636616,-0.09410590123511119,-0.9526336532234583,0.014556622514584625,-1.1127043717359917,-0.026969222027125032,1.2242905344885322,0.2438412784404094,0.5769901278380211,-0.3355697822436109,0.10169660956658233,0.3024495027090232,0.3860651473377815,0.06108381675155984,-0.057181363414009125,0.057455253752941984,-0.07575559213205962,-0.5131622689236764,0.4169570610390099,-0.3696165053851115,-0.06374975257419872
0.019464562224771994,-0.11844978135524874,0.5545713699982568,0.7487003748198086,0.08121909656837266,-0.04467859873903385,0.6563954828546669,0.3038601909366494,0.3338997839278939,-0.18154119282285922,-0.9810190870725147,0.11714556183239122,-1.170609045632146,-0.08646410044426937,1.2225018615137433,0.2416861096558711,0.7296155200311583,-0.3407651648679964,0.11400370822381907,0.31185131984186953,0.4383427925849058,0.05754179010934834,-0.05328126554514759,0.052890616155633646,-0.09065319452753501,-0.5162554744420591,0.45988623563668307,-0.38881465168564083,-0.061503488585574716
0.01818081546687289,-0.12195300154475906,0.5520361517195876,0.7464468328668162,0.0854874286172219,-0.05401481563593661,0.6577168273226174,0.2986127058261445,0.34694734662213755,-0.2933533590760139,-0.9918210637079782,0.2506522729718365,-1.2711936394764611,-0.17556676071242622,1.2248550799048397,0.2715808090619796,0.9185251202314565,-0.34265988571825917,0.13503374814980315,0.32413436618224933,0.48749154411653095,0.06375265134816496,-0.05108988023985034,0.04856903251970761,-0.09701118246698323,-0.5162780908076303,0.5015701521565054,-0.3936196202388142,-0.05919110522750437
0.01797736721772074,-0.120736408221201,0.5501248679117792,0.7423324093421012,0.08360664259440811,-0.05657361542802551,0.6623835364740304,0.28242609264303115,0.35420477683487034,-0.4566363169592125,-0.981215279094466,0.4202578944856562,-1.3898996960798569,-0.3029399040069082,1.2116228485240488,0.34549699897229336,1.121983628379537,-0.3538318310268712,0.1463686998748533,0.32987776243289274,0.5199393716823604,0.07652574457618624,-0.04979343720611876,0.045445533503373,-0.09452813375111738,-0.5204552843499572,0.5225064107126257,-0.39300276315221405,-0.05645957534238177
0.015313699137774986,-0.11802490866150916,0.5491811243367114,0.7388176734992974,0.08103516456791875,-0.06114576896346702,0.6662153873683805,0.24728784865222592,0.3708873116167753,-0.6429290272097439,-0.9848984434130758,0.5688463655042958,-1.5047428324325212,-0.4575220370226268,1.1968800925886514,0.43592931005007585,1.3155507047514106,-0.3545082912552883,0.14815091912424183,0.33053396252095324,0.5335320042063585,0.09451697237144457,-0.062430111116694616,0.0562333432176395,-0.09419041740398176,-0.5328591689144954,0.5298794556519556,-0.3772684730186844,-0.04298554545605713
0.017382171117449316,-0.11405956497631005,0.5495888332558678,0.7349066239688914,0.08082964088861214,-0.06029019850000593,0.6706294917204979,0.21467460900248406,0.38076026842896954,-0.8275860417218729,-0.9909392653337037,0.6588823070424297,-1.5908657377963016,-0.6201188967385948,1.1705529800803478,0.5112878075287145,1.497409883919286,-0.34122329515846095,0.13497303659518534,0.32005449513453343,0.5185569775781251,0.11473728692827642,-0.07819576376710234,0.07866852684979453,-0.08413038267849665,-0.5445851957109529,0.5053312955416903,-0.3628384452271263,-0.04120033405440163
0.016850305340244766,-0.10988435878674153,0.5513373087618322,0.7340129587425147,0.0809961856463587,-0.06049180000316788,0.6715693087397425,0.171223007231584,0.4031856965123855,-0.9794304612945548,-0.9774411261978458,0.7005610642615947,-1.653672232982087,-0.7871375061902555,1.1670756285364061,0.5690928142703253,1.6537209345743131,-0.31432604704594624,0.12571152944236907,0.33279212667020674,0.48586648326576365,0.12116893329127965,-0.08483417400784093,0.10283777349643011,-0.07771434879975118,-0.5448009091467522,0.47888981745259795,-0.3335605863468868,-0.03543170755682576
0.018489191045149032,-0.10440671642431582,0.5532931474567014,0.7349364936873406,0.08065366412730848,-0.05699372033020956,0.6709061428786577,0.14453642221552507,0.41176279208371774,-1.101250853878593,-0.9520680148791275,0.7331157958261469,-1.7025661173824107,-0.9225706383091582,1.1539298478886268,0.6134321906567248,1.7509366094341516,-0.2909967454212929,0.11470370082838663,0.33057762282110503,0.45142211573429564,0.1349925546419483,-0.09014080366173396,0.1263259113886693,-0.06802679722513374,-0.5422408105561553,0.4418156935639093,-0.30591689411378076,-0.03337517220560391
0.020634635620507692,-0.10172054553049384,0.5551320821842416,0.7377068922793769,0.0825555802069024,-0.05604596693692325,0.6677064975348898,0.12401015221772198,0.4236080522974207,-1.1968826239426609,-0.9205938279823747,0.7453890719653276,-1.730713305806098,-1.0381115132778753,1.138101951120754,0.6391084021936775,1.817831817052557,-0.2691326154063264,0.10901305723328028,0.33171039194952123,0.42703473139701364,0.14766557262896088,-0.09491005530264893,0.1458375930198209,-0.0603508539724278,-0.5347241095034033,0.4146346781418534,-0.2815549685627127,-0.0308749874559585
0.021247634162877428,-0.10070945325763919,0.5568342542570374,0.7398495158530943,0.0839582433125338,-0.055508135364589095,0.6652011381380528,0.1089292744681875,0.4228571139676145,-1.2611406295821048,-0.8707267576066008,0.7482962662532516,-1.7477239612102324,-1.1209526993014876,1.1186548340055085,0.6436253096542787,1.851801374905302,-0.25104959775058644,0.10043163933884179,0.3289532546892663,0.40144261983943713,0.1544369880231477,-0.10165250965320656,0.1563949264325735,-0.05719718741982778,-0.5261704456051881,0.39810578059424473,-0.2571681722052116,-0.025413857173973566
0.02077671388744128,-0.10170304792547734,0.5578903246758986,0.740724097728659,0.08540395532076829,-0.05719221437090536,0.6638998614813711,0.10011379485410549,0.4124841509057701,-1.3102352268121569,-0.8120565828030941,0.7504965577513437,-1.7635955724110781,-1.1787004036318582,1.0769983029304255,0.6485687219738714,1.8659377448009928,-0.2403560010819524,0.09582172419824334,0.3255679329342284,0.3879669691706058,0.15991578792207548,-0.10417818411045039,0.1594773615443234,-0.05419048787546968,-0.5115134706005062,0.3935947354078942,-0.23842166834789952,-0.025563887724197147
0.020793902446892647,-0.10253857954958243,0.5584624360655335,0.7410833616083476,0.08737046677535763,-0.058714525865172035,0.6631096871070083,0.08742396789631417,0.4061645390079703,-1.3505320050838687,-0.7478415009231357,0.753433769268076,-1.7803962260273005,-1.218368068404737,1.038698600189155,0.6437487144463446,1.8718541121461207,-0.23889783703797585,0.09386913914213132,0.3188883041115311,0.39281933911447925,0.16463836743161764,-0.10399531365331557,0.1590003123172506,-0.05365884521352848,-0.49918826543992856,0.3990095580773392,-0.23093448146804793,-0.026651310837715866
0.019952267636149237,-0.1030251833145045,0.5586492094597839,0.7397407208070554,0.08923738144464034,-0.06070225378303331,0.6641803912480562,0.07445680082265581,0.4029790360508049,-1.3895052276498328,-0.6874316896496796,0.7609533271636477,-1.794246089828463,-1.2466719889512288,0.9992857963737828,0.6380385508706383,1.8736016076166693,-0.24454925400251049,0.09313454579783045,0.31337247832441417,0.4094603797320212,0.16262471680164162,-0.10600730224006491,0.15699534633947654,-0.05402235324822521,-0.48495939265201654,0.4107994951511314,-0.23164726419047274,-0.02652619422515149
0.019213530465696675,-0.10339214939148607,0.5586733422921194,0.7385131428017799,0.09007198283382625,-0.06291766835319743,0.6652268356180593,0.06150192677190254,0.39956141085612246,-1.420415753189417,-0.630132008441884,0.7721068469352454,-1.8068431653385277,-1.2640903621020965,0.9626135113970136,0.6280247922067353,1.8791152614512991,-0.25656059565922046,0.0975351977327953,0.3099412236141896,0.4355104527069362,0.15494946034133722,-0.10670572748424814,0.15364063291769275,-0.05419722503027559,-0.4776096079915359,0.4249572642655501,-0.24144358354633033,-0.025292537474818168
0.018492785825445605,-0.10266184547660688,0.5585197964776061,0.7360070554285912,0.09033149814715238,-0.06495346847125405,0.6677685839685618,0.05088549080507021,0.3990416977762216,-1.451075374441359,-0.5765911587153073,0.7872360475109142,-1.81541524907644,-1.274573865144603,0.923371265801004,0.617723812758035,1.885443460639101,-0.27251866911006384,0.10461388920526465,0.3095777854975886,0.4674599649926229,0.14239023766616304,-0.10473646962283843,0.15436504047581814,-0.05231931330556203,-0.4736475631149324,0.4352319605388673,-0.2579800236368127,-0.02576011158486676
0.018434757422489505,-0.10236146171381105,0.5581633356706488,0.734575929562881,0.09061128037235457,-0.0678410813573598,0.6690182264007271,0.0383671617389737,0.3965352037421866,-1.478130303556195,-0.5310307078777772,0.8074019055382745,-1.8273834685722752,-1.277254101007859,0.886148630694349,0.6053034339142752,1.8900745885452126,-0.2892995379471644,0.11773278166240934,0.3115212502159478,0.5023782041210964,0.13400795651545216,-0.10265946775123141,0.1563309507660499,-0.048285395516018924,-0.47048627432466833,0.44374031396972496,-0.27490969799609805,-0.028501343901709907
0.018587178554670753,-0.10214392486528982,0.5581330081798835,0.7338606591402906,0.09067479080049302,-0.0688031172540402,0.6696960103924694,0.03312034124783479,0.39482834279715084,-1.500627928631742,-0.48752592333757816,0.8267555880292111,-1.8369966048229343,-1.2704879176339263,0.8519158181604622,0.5878854461965212,1.8953833070153057,-0.30295921825860817,0.12632256566273692,0.31347411744120435,0.5260046304120228,0.11814440468391973,-0.0981743449632704,0.1559514486286213,-0.046560311704602786,-0.469125940781417,0.44939747580803086,-0.2897812577366717,-0.028129646802144682
0.01796535987328112,-0.1025072313507865,0.5583537006635283,0.7332793519860651,0.08938048353021068,-0.06984927891676723,0.6703980902043267,0.028332562238061954,0.38896377205773336,-1.5201719028448508,-0.4459270292625988,0.8435592899489507,-1.849689658119497,-1.2607546826348404,0.8122306093264802,0.5681410725887501,1.9020026512511754,-0.3154349264660653,0.13194633573611564,0.30997929542092106,0.5403183414383752,0.10598347211222287,-0.09454077083946473,0.15546282555366592,-0.041793596343549747,-0.4658035686825046,0.4475020333005284,-0.2983983143032403,-0.027391520952505573
0.017624838298820323,-0.10202865709696933,0.5589647213951812,0.7331405556904844,0.08665882493788736,-0.06857281574022908,0.6710387042516157,0.024276410054470166,0.3835646511301782,-1.5339773372749457,-0.4039674216380319,0.8545419027279089,-1.8595305631318035,-1.2462285226744187,0.7758147862230025,0.5457334820207923,1.9129109645053217,-0.32374168020881705,0.1343110116663555,0.30798550376333933,0.5403164239297397,0.09153231510146985,-0.09000087743355746,0.15368183425002105,-0.03735467177767256,-0.4658052885472632,0.44005824848623687,-0.30171303104740615,-0.02575233026372554
0.018009394768337746,-0.10137419723154223,0.5599518719839268,0.7339206137152995,0.08346827056722234,-0.06579865473955852,0.6708681819901268,0.01985006233997772,0.3734596184492117,-1.53870285769986,-0.36321251741564714,0.8569040067618326,-1.8657989044620975,-1.2249780607162564,0.7418249809194308,0.5184987129183711,1.924070627770252,-0.32897664033321405,0.1359050630622287,0.30873601910767207,0.5320992251923836,0.07989534775754903,-0.08544509388688426,0.15159055500174387,-0.03198915968706295,-0.4656509008455763,0.4267934091209425,-0.3021656500174638,-0.023250111831417546
0.017974081939085288,-0.1014739101856491,0.5610436668156439,0.7350366467335407,0.07930723463559046,-0.06328986448226945,0.6703923355371704,0.01704489474802385,0.3643887183129209,-1.5372153846882477,-0.3163547129274766,0.8518742101738613,-1.8685252163107695,-1.2000462821057984,0.7059764906872699,0.48762418442812383,1.9340052559426943,-0.3316319220171628,0.1347938200655211,0.304417305319582,0.5136254942303032,0.07249959585540755,-0.0794975280966813,0.14746663717004652,-0.02483299794442003,-0.4634761251641959,0.4115394490363034,-0.29688052201017123,-0.023760207163882194
0.0181271611164222,-0.10207602527225572,0.5622728587997247,0.7365269245766132,0.07478947831779188,-0.06023410269185771,0.6695569252719098,0.015210996704944899,0.355195247877866,-1.5284212838011622,-0.27235583761859405,0.8403846885420829,-1.865491006866234,-1.1697733563119581,0.6781773322311562,0.4497870497355896,1.9414295642939359,-0.33137606295096855,0.13240558569844335,0.3032169447480003,0.4883755205210408,0.06634356200301456,-0.07343416797390157,0.14032165849834982,-0.017853283081423567,-0.4617427776506386,0.3969566450224438,-0.2876020833986392,-0.021158406386392832
0.017973417130966268,-0.10317254989881257,0.5633510795008746,0.7382561355220564,0.07113296183706663,-0.05803607898255324,0.6682438130208573,0.011739064612180572,0.3424124038141176,-1.516358569735688,-0.22592990768861246,0.8225957497801023,-1.8579814313883543,-1.1373942385889122,0.6445749160571667,0.4086073316639598,1.9462306148191397,-0.32884354736809157,0.12893209781483272,0.3003273769273269,0.46228186762334916,0.06421750167144971,-0.06918180987685725,0.13273093853376078,-0.011955283342574369,-0.45653187365139347,0.38579276851681604,-0.2793843439003627,-0.02049416025452529
0.0167368719294515,-0.10348577177469274,0.5643246568323502,0.740047539512523,0.0661615432836336,-0.05599265689084118,0.6669461086370407,0.007907000776043824,0.33414109194299996,-1.5040535309242749,-0.18244035140445145,0.8013619558155106,-1.8455186426369399,-1.1051071143528113,0.6045115269134339,0.3629572994888736,1.9424545322301336,-0.32820476622447503,0.1259302231984865,0.2967472016519088,0.4398559001695236,0.05844102082209968,-0.06534695747673398,0.12296858438293465,-0.005659768279039586,-0.446521334458747,0.37802080479398914,-0.27027913716941726,-0.01907712031665099
0.015897080498903704,-0.10452159443130526,0.5649864571405462,0.7421524085535463,0.06245742628833534,-0.05429830974181871,0.6651019214667695,0.006033580888423354,0.3281815795045227,-1.4917588104446995,-0.13803509098942224,0.7796249754671811,-1.8291297170943657,-1.0687553658319138,0.5585713238618345,0.317708395488423,1.940771674545268,-0.3298568420086071,0.12486074566705177,0.293404509923305,0.4260997014422286,0.053248222219672625,-0.06229376373919507,0.10840464115386335,-0.004123566544325538,-0.4394125524515784,0.38182906369145025,-0.26292847425702054,-0.018376029785605638
0.014978813479378735,-0.10534197146683574,0.5652273432943503,0.7440380593971649,0.05898185610692033,-0.05349663978993661,0.6633751701336649,0.003665071885422434,0.32178866906172504,-1.4775911760227687,-0.09797457320174728,0.7612037017113256,-1.8053235462062336,-1.0254095764642601,0.5153305440241616,0.2696522646740885,1.9344115708347613,-0.33484006861755683,0.126868701186239,0.290462548583429,0.42306095986395176,0.04727964905179294,-0.05817584185484843,0.09254311606367267,-0.003633744109507616,-0.43318863136363667,0.3934006053859991,-0.2588713303030841,-0.01861114294482278
0.015031375099635648,-0.10494321964612614,0.5651498784015377,0.7460607095107422,0.05639836762949726,-0.05148628659835731,0.6614845456587533,0.0010142854552664532,0.316977700945305,-1.4667545620837452,-0.054832959710667185,0.7475094175278888,-1.7788642048083572,-0.9786675967522585,0.4719731574506328,0.21432354662969405,1.9296973068398509,-0.3432134920193268,0.12988761006522603,0.28699852430450323,0.43196123932540603,0.0385688375575976,-0.05545437564037445,0.07620390108840873,-0.0066460493789357224,-0.4299258624679088,0.41090860073031865,-0.25865877735865633,-0.018417466993891223
0.013870774211615217,-0.10469000399819167,0.564975674605523,0.7479112967249922,0.05348591250472986,-0.05046279684593919,0.6597131615552032,0.001734444408775525,0.3139024193137059,-1.4621476341938309,-0.01614309177052999,0.7398343189360175,-1.7504842040156985,-0.9285274413366497,0.4268002098882872,0.15535677453589944,1.920973110213564,-0.35453125164399146,0.13300316280134059,0.2818136738375925,0.44613204499119613,0.025764400388195014,-0.055303999952564874,0.061804080542462864,-0.009120852860621791,-0.42427919891357974,0.42552621842592314,-0.26259332791206463,-0.0177683993792574
0.013279116038345678,-0.10333320761600555,0.5646259673835015,0.7497928182453905,0.0511020724096076,-0.04926100355961737,0.6578545898839473,0.0023332617854098384,0.3111116146789321,-1.462653631574204,0.01984255472548329,0.7414483987220127,-1.7292627162786118,-0.8769684563813335,0.3859882930485914,0.09490616458460804,1.91126902154287,-0.3665921913298736,0.13790365595788806,0.2778212920310587,0.46810900099373765,0.011571467580429429,-0.05537841337391758,0.05034922052657409,-0.0109176074287258,-0.4173575638114773,0.4397519859602992,-0.26856839327353865,-0.0185258033989268
0.013064869983146533,-0.10125445047809131,0.564000767027411,0.7516442273360675,0.04851113961842862,-0.0491602783847201,0.6559427504549642,0.004873332684275427,0.3061932487021071,-1.4718723782789758,0.05416870474677515,0.7571692720468254,-1.706566823843591,-0.8010797977285001,0.35681052270981495,0.017722752794043086,1.8996269748869383,-0.37863845123076173,0.14652457436694585,0.27299187375514705,0.49604249831370395,-0.0071296550207043605,-0.05572432508687927,0.0411972333541778,-0.010753105172751128,-0.41166393175784566,0.45610904268884506,-0.27937900654007664,-0.019053198799639078
0.011971318907825025,-0.09935602099219225,0.5636219669599575,0.7542772650909823,0.045960929843855414,-0.049079962474812805,0.6531037877536978,0.009684270249279252,0.30065016679119594,-1.4925961287828982,0.09758434732042519,0.7895307254933714,-1.6840635813572766,-0.7192834756681323,0.33508102260744665,-0.0625709890230716,1.8869238161471498,-0.38677964202353265,0.1549190212500236,0.275691231666597,0.5171620471554155,-0.020815855337101882,-0.057832236343420246,0.034608486313268585,-0.011514567742860981,-0.40477851469537374,0.4664096320490459,-0.28316229089741285,-0.01794403359317371
0.010085449259871686,-0.0974364364379295,0.5636152293503102,0.7573617770170302,0.04326925817730706,-0.04941253258303887,0.6496840090645004,0.020568534606386822,0.2971084555555861,-1.5291379344299696,0.14114544162051054,0.8387672541686803,-1.6663295586288653,-0.6350451411356253,0.3276535907637786,-0.14366741970472344,1.8742852925287476,-0.3891808970618069,0.1613609364421086,0.2804119887077001,0.528322408674466,-0.03172638379335804,-0.05757941054592318,0.032601985364332946,-0.01112460359660113,-0.3964982532210821,0.46740469399566525,-0.2838554818907327,-0.014103147432632326
0.00914489193879883,-0.09466115558132224,0.5640034552514687,0.7615493316499414,0.040723215840324234,-0.048454933027947296,0.6450088019712655,0.03718438590619608,0.2936644414096098,-1.599600300018023,0.19422100503463324,0.9201672114401097,-1.6596687324188675,-0.5295341592799515,0.3257247218800579,-0.2437908990679415,1.8703354796519247,-0.3841518310448404,0.16705065455495174,0.2892058009126148,0.5294348943981445,-0.04534019676169115,-0.05750666474706308,0.030825467176657417,-0.010316735418027953,-0.3850518355057516,0.4663085984589024,-0.2809202921881204,-0.011830998933777447
0.007906509576846112,-0.0911137922943453,0.56487090402731,0.765390031882132,0.038995084949192335,-0.04638721866732551,0.6407071939580387,0.051884469783864476,0.2920847629302138,-1.765173338076871,0.2653527938811096,1.0980994511582722,-1.6837980483699921,-0.36346554566985206,0.341927848421989,-0.40288088580731085,1.89653458942575,-0.3715164359425213,0.1664051714144843,0.3015897844854478,0.5183561028417243,-0.05845932538394739,-0.056018022262215236,0.0330456886039744,-0.012337909798803403,-0.3730902213975996,0.459241804719992,-0.2764673055946703,-0.008089970176861546
0.006229351491502654,-0.08910833256214093,0.5660227180944202,0.7674666857484991,0.03791926645473063,-0.04239879813641981,0.6385603788322108,0.06202506049598841,0.28957348864480514,-1.885409003106518,0.320439440275623,1.2280934067443974,-1.6962149261459294,-0.2652833333683613,0.34855370248631007,-0.4955953366540881,1.9062432534294458,-0.36036422538722196,0.15813521344673437,0.31514601381881546,0.4960171355619729,-0.062448995696179156,-0.054308133883470694,0.03416466340866696,-0.01846548123807973,-0.36703451953917543,0.4445429809041876,-0.266188004272859,-0.0007634341337868899
0.006114289006739888,-0.08637325805335887,0.5672054758975644,0.7696570157780092,0.03759754216729246,-0.03514241411274801,0.6363800072417394,0.07243471170179072,0.2843388605099433,-1.981768258994294,0.3814914827448579,1.337020025493661,-1.701328644660508,-0.1840858573564405,0.3475343641618635,-0.5729970285032041,1.9055058850395723,-0.34882377102060635,0.14386494299382935,0.3247700741916839,0.4685398449554016,-0.06465101602287923,-0.05110630226747344,0.03296366681338987,-0.027717723266868555,-0.36325141763778523,0.42917050202599266,-0.2572679531317523,0.005786693583550841
0.0054681601145248546,-0.08388770432959894,0.5683954257669084,0.7727453801020535,0.0363789118913008,-0.02707633665388151,0.6330940090491645,0.08187898903457533,0.27862720747923486,-2.048412597924336,0.44253325148675593,1.4061566466072883,-1.6985514863855848,-0.10906020296852917,0.34150377449472114,-0.6445840282060598,1.8897019253383436,-0.3411830017770318,0.12979368420747947,0.33571978528982926,0.44203671579012255,-0.06694547744276566,-0.047183352686778694,0.0266388568513124,-0.03736773894137549,-0.35417590721402836,0.41541740619986084,-0.24949641752732502,0.010347630682057563
0.005024001655957148,-0.08225627036747332,0.5692023616946348,0.7747438303240102,0.03557377764814022,-0.022101711790591252,0.6308866919302124,0.09131315571951845,0.27420095477246426,-2.104601323646173,0.49367952136106497,1.4685329338342887,-1.6876724671151415,-0.029832697024495806,0.3483732366510268,-0.7165292462843285,1.8776578492111886,-0.33424581831659644,0.11997706533915038,0.34205950957956754,0.42228472793929195,-0.06635255236589367,-0.042531066487777595,0.02065457137542299,-0.044741994200978366,-0.3499704984013361,0.4101648028394105,-0.24576026548863986,0.012757776760412254
0.005341247626497556,-0.08037262839979108,0.569719660280729,0.777762108732495,0.03431766699516535,-0.015960372921308794,0.6274182547935656,0.10040025534593187,0.2675457173346848,-2.1400527309394874,0.5485097427928215,1.5103355648092855,-1.6680481737395856,0.06889938975659378,0.3608291314153235,-0.7981896900203462,1.858224654912138,-0.33226397650282097,0.1129098856275442,0.34837301988661146,0.4096611288761717,-0.06776043305039464,-0.03731075488923958,0.006907226402795028,-0.05474116452428397,-0.3478778540239917,0.41605514112235964,-0.24258490487029566,0.015515456019751258
0.00534828372437842,-0.07976578381319795,0.5698340502036996,0.7792655813444945,0.03322448003673073,-0.013405464590978798,0.6256689069925206,0.10638602468741247,0.26457231640175194,-2.1695503956815374,0.5926637175624001,1.547729986470056,-1.643617869451807,0.1741039528561648,0.3873924076406883,-0.8822873275361394,1.8406085744466605,-0.33420458387986285,0.11051092810536425,0.3471695091313175,0.4071459626507108,-0.06846373408089657,-0.03268353436834339,-0.005800913362737617,-0.061166763906079565,-0.348264201746654,0.42830021795524437,-0.244093975826295,0.017444552961262183
0.005794027144906753,-0.07897814899699868,0.5693793753757382,0.7778601379257855,0.03285954392007665,-0.011723848737789295,0.627468252240873,0.10249890987689766,0.26214723156906466,-2.191449137890978,0.6269178323336972,1.5856860948060334,-1.6112568782906347,0.30397913477189503,0.42186465382392496,-0.9923587806045802,1.8196455437646655,-0.34233053005764447,0.10887711006090611,0.3411914288986897,0.4179062119331857,-0.07073918684222655,-0.031481186693637454,-0.018310084319811026,-0.06871652411223836,-0.355953756105995,0.4500605246563658,-0.25254241243146697,0.018774023249003367
0.006570833115637265,-0.0789353486513741,0.5688629439744192,0.7753928695312909,0.03324395262055713,-0.010340486651931779,0.630518684758821,0.09182356314567774,0.26528669779228875,-2.2019178281129164,0.6543918283744462,1.6175987022656602,-1.5732206338340793,0.4055769940120037,0.4617108798130894,-1.0726283145634712,1.7940751323309454,-0.3521202093248507,0.10717535921425238,0.3339491568490003,0.43007254415379514,-0.0706197267271763,-0.02924371064256629,-0.027318011258500453,-0.07547260223780997,-0.36604372685752823,0.46693041528165813,-0.2590910706060531,0.01644577519322429
0.008177089144569778,-0.07772250541437296,0.5682562643207814,0.7724330427266012,0.033823502442827585,-0.008249775918646328,0.6341412353600077,0.07490423954892388,0.26624770493458716,-2.2005593595811344,0.6696270189673378,1.641536774921352,-1.538543767716679,0.5031422857432284,0.5017410566228716,-1.1500992926671911,1.7712376251238289,-0.3624491102864264,0.10483203792712188,0.32435399276999366,0.44595784940614,-0.07233760925708502,-0.029898951776825437,-0.030098532243583685,-0.08205728987485586,-0.38226397786187566,0.47804738262954205,-0.27242381295293067,0.01622624776035889
0.01002230968048242,-0.07712030930428972,0.5677824080153074,0.7688472376824226,0.033506409914338724,-0.0064369368422500005,0.6385215826006583,0.058355787852900645,0.2651530670644811,-2.189145453606837,0.6757518716381253,1.653221089962375,-1.4976088193424208,0.6002293700730387,0.5421301723573094,-1.2264394506471252,1.744701078044144,-0.37315876681660964,0.1061922306005539,0.31995631188729146,0.45819070660355005,-0.07198239877564791,-0.03239294112752808,-0.031083882566601113,-0.08390172244909322,-0.39864942862715164,0.4830513148481155,-0.28565677644111703,0.01593080590123021
0.012704068185609707,-0.07618378723189781,0.5674444982570958,0.7652098614992648,0.03301679282348654,-0.0032885905176285512,0.6429253023706046,0.04128649832503976,0.26067152595606047,-2.1663270600726743,0.6799084620514408,1.6587179631109927,-1.4495273506551847,0.6913881711908793,0.5891582288604017,-1.297608048011737,1.7041463850096623,-0.38235579818137083,0.1055799176857992,0.31296420968869254,0.4643115068871089,-0.06638548835669861,-0.034665589214152616,-0.03145657021510758,-0.08508014664908292,-0.416848510937728,0.48468904934810403,-0.29480097379679066,0.016837342895695107
0.015485768499672183,-0.07569085852094255,0.5676243978121692,0.7620642863964919,0.032095581932752276,0.0003205931981560954,0.6467053380322476,0.02738318463400055,0.25650479103810875,-2.1403635727532015,0.6824837689507525,1.6608615678335448,-1.3949171509321268,0.7748377728853063,0.641573667835388,-1.3540912151244198,1.6547775447085136,-0.3879275949491813,0.10479624682388927,0.3097635308273072,0.46054919650897896,-0.05718549780062983,-0.03765871431644735,-0.02809113627288428,-0.08328905299720812,-0.4363553265598158,0.47379989453885957,-0.3025722020335715,0.02034986669197738
0.016980138169555684,-0.07512481429173692,0.5682795347946351,0.7602995875439881,0.03049762172263187,0.004347614739160146,0.6488416836916256,0.021597762749688533,0.2507766136678041,-2.1087904112128606,0.691963213091103,1.6611852664757851,-1.339104150311259,0.8371594878468198,0.6940713078302378,-1.3880994477328061,1.600805948803573,-0.38947495545459254,0.10213280219875596,0.3115550815682434,0.44736815505548305,-0.04221940535471846,-0.03958104513589639,-0.022907181935008153,-0.0814097401876476,-0.4520207267643034,0.45405273243206423,-0.2983617984559281,0.02580116734045514
0.018172366647209087,-0.07401835214443593,0.5693639513886213,0.7589127731969244,0.028257907398739672,0.008237746768627752,0.6505267349434403,0.022600621729945234,0.24841523154075587,-2.084979953278945,0.7039008942799868,1.6657467740747534,-1.2662094273825295,0.8904546509206829,0.7515591815960283,-1.4020673487010202,1.5317930864180764,-0.3848965546264519,0.09722696868078912,0.3114662253759741,0.42438807544304313,-0.02668492415081243,-0.039709434055477166,-0.013540603554436726,-0.07527533233485502,-0.464275154886444,0.42413968155763626,-0.2904382176252097,0.030501019778014622
0.01866491797756397,-0.07437735311845847,0.5705666454605528,0.7580297529520761,0.026694592512147036,0.010451258051013846,0.6515896435450576,0.023358074845902493,0.2472100438571473,-2.0646816656927234,0.7172312991326799,1.6799352368956555,-1.171027081378298,0.9353747864944291,0.8112622773996702,-1.3977023103047264,1.4356178722173008,-0.3763415412290788,0.09093375310392912,0.3083539671271893,0.3944979777225497,-0.0057828050351464225,-0.037523025772446955,-0.004377573874352319,-0.06788511484205356,-0.47148455079471974,0.39360927363296716,-0.2774058290389802,0.03106067668612219
0.01929629991010003,-0.07667415329883541,0.5717290818483615,0.7583211508667398,0.02661441828847883,0.009931922499846401,0.6512618995479198,0.031760321085301566,0.2470101468679102,-2.066433457742849,0.7309956188707212,1.7226569345498506,-1.0633386942427139,0.9578272352340198,0.8630356878370632,-1.3556522501876618,1.3275418858120083,-0.3612180115903382,0.08571918775052767,0.3010555961481045,0.35864501079766303,0.014637086345463655,-0.034508787938861474,0.004883892880850383,-0.060500917019228884,-0.481650188394528,0.3671664324291525,-0.2643416123933689,0.032734638921815225
0.019367127501262574,-0.07849798189715217,0.5725196227319719,0.7592663009962121,0.02701611058037267,0.007986185067307111,0.6501700045285908,0.04442235172702975,0.24226098135990778,-2.0922499842416427,0.7487262959556158,1.7952316578638896,-0.9425789115470077,0.9640279942391025,0.9189994050687134,-1.2743198317263125,1.2132348502971861,-0.3434888119904592,0.0807131496809067,0.29124772675591815,0.3256184639001922,0.031525941982121976,-0.027610531399090178,0.012828007182566745,-0.056746911353352775,-0.4929672825078193,0.35226430448079565,-0.25351116515044897,0.027921465920030766
0.018904350720546182,-0.08089811399813153,0.5725193847300138,0.7590296123593965,0.027531850441394005,0.004131539442721342,0.6504605869340963,0.05866177041116879,0.24485330960792562,-2.151572168911106,0.7540724775982427,1.8951664558718713,-0.8220427489532104,0.9431103782680318,0.9627646402052134,-1.1762062819968162,1.0992155792814404,-0.33516921538818306,0.08256304165129014,0.28860411351233684,0.3126194671803973,0.03931649172096015,-0.025001468706989195,0.014591565203004208,-0.052218245748482314,-0.4929381685342106,0.3520781875739718,-0.2526991314943367,0.01660277453748814
0.018650651587687948,-0.08292964383487574,0.5718394000628,0.7591690460915915,0.029455437650550136,-0.00046060510388781935,0.6502265178321587,0.06766359978615323,0.2492841565767261,-2.247279071695547,0.763416288285007,2.036680371968833,-0.7017591819481319,0.8999864744466823,0.996879003191407,-1.0590202463483678,0.9806627623927496,-0.3319947620777941,0.0847648517869813,0.2795767774262088,0.31674238607102284,0.0291176079557632,-0.016443393739222083,0.01232052203655128,-0.053585517234516544,-0.4941876708001085,0.3681525838193049,-0.2644054418484826,0.0013840160753871324
0.01751357255827428,-0.08388216447866476,0.5698120510933489,0.7568558206766142,0.031739746055186674,-0.004874511670389666,0.6527925354691608,0.08100878066653087,0.25168122235723567,-2.387473844746555,0.7880608322706398,2.231899222233473,-0.5696113471078431,0.8233078496979205,1.035052618178276,-0.9167004444195814,0.8275400557596363,-0.3519188976098674,0.09025122933342809,0.2739947864071361,0.3647772352463783,0.004215360208613184,0.0018306097122074226,-4.7651967379675614e-05,-0.06483930556860087,-0.4970521320265245,0.41278727700159223,-0.2938522711106795,-0.019170384421928362
0.01544766500467434,-0.08529080024934459,0.5675366528268329,0.7721770975750312,0.02667904285521893,-0.016124420488532798,0.634642231274313,0.13730108689975112,0.2547675008905282,-2.399204639266793,0.8506139889305105,2.269999761870139,-0.5132743386893143,0.7107101497338726,1.0685759085282245,-0.7121213866405175,0.7050341848725432,-0.36901877615869905,0.14316647954417971,0.30314903377221114,0.43235425334457517,-0.028858999155210424,0.01637477378725284,-0.026907752712589744,-0.05145547244442614,-0.44761455028133934,0.46347107247833325,-0.3150805467896724,-0.046672970374614986
0.01191261271996327,-0.08763839579831739,0.5643912808742324,0.796741135929792,0.018125169978829517,-0.0351119039273793,0.6030275240261734,0.22545369255152917,0.2655236807794486,-2.3943439959031383,0.9185946757713367,2.2699999999999254,-0.4545166480545453,0.5353572737339012,1.0997247005108644,-0.4224281393102445,0.5324732497822608,-0.38216022521449355,0.23652882694184005,0.36114446246455434,0.5272099059323233,-0.06617751981386777,0.01925695994396586,-0.05965801554244014,-0.0134847969422748,-0.36030028329904296,0.5230737014688651,-0.338129850174185,-0.08147768677367927
0.008257907230322065,-0.09047713129220145,0.5614156809799868,0.8211603681860993,0.00719080045437641,-0.05725253035845728,0.5677729210492946,0.3038439608953518,0.26455559465499195,-2.3867353137470415,0.98126095473384,2.27,-0.43422605193668085,0.3705729814351295,1.1722724242417188,-0.09982494774211345,0.41236179982017174,-0.37967210665959006,0.3424463146071466,0.41795031494742196,0.6076507766828736,-0.09631630322224563,0.016483137297300072,-0.08106389350206622,0.041622833401611214,-0.27717294358669503,0.5661492759566286,-0.3505721404871229,-0.10707489070844123
0.005389609305650618,-0.09456743731157836,0.5587950777987677,0.8481494392171314,-0.00530333781698579,-0.07905526851809708,0.523798308400471,0.40057308482189175,0.2482349884205846,-2.394136644333984,1.026598240281131,2.27,-0.43952561835191245,0.2123815685735775,1.2862323399289846,0.23683648256439888,0.31970543573372334,-0.3606266775668245,0.45975773378135026,0.48385034713625297,0.6750134360000829,-0.1161676646152959,0.00021832372415010737,-0.10191517925132373,0.1094095039973091,-0.18679377285391235,0.6024611278525113,-0.3488708316729204,-0.12431162530552496
